pklito/ARMP-Project/RTDE_Python_Client_Library-main/examples/robot_data.csv
timestamp target_q_0 target_q_1 target_q_2 target_q_3 target_q_4 target_q_5 target_qd_0 target_qd_1 target_qd_2 target_qd_3 target_qd_4 target_qd_5 target_qdd_0 target_qdd_1 target_qdd_2 target_qdd_3 target_qdd_4 target_qdd_5 target_current_0 target_current_1 target_current_2 target_current_3 target_current_4 target_current_5 target_moment_0 target_moment_1 target_moment_2 target_moment_3 target_moment_4 target_moment_5 actual_q_0 actual_q_1 actual_q_2 actual_q_3 actual_q_4 actual_q_5 actual_qd_0 actual_qd_1 actual_qd_2 actual_qd_3 actual_qd_4 actual_qd_5 actual_current_0 actual_current_1 actual_current_2 actual_current_3 actual_current_4 actual_current_5 joint_control_output_0 joint_control_output_1 joint_control_output_2 joint_control_output_3 joint_control_output_4 joint_control_output_5 actual_TCP_pose_0 actual_TCP_pose_1 actual_TCP_pose_2 actual_TCP_pose_3 actual_TCP_pose_4 actual_TCP_pose_5 actual_TCP_speed_0 actual_TCP_speed_1 actual_TCP_speed_2 actual_TCP_speed_3 actual_TCP_speed_4 actual_TCP_speed_5 actual_TCP_force_0 actual_TCP_force_1 actual_TCP_force_2 actual_TCP_force_3 actual_TCP_force_4 actual_TCP_force_5 target_TCP_pose_0 target_TCP_pose_1 target_TCP_pose_2 target_TCP_pose_3 target_TCP_pose_4 target_TCP_pose_5 target_TCP_speed_0 target_TCP_speed_1 target_TCP_speed_2 target_TCP_speed_3 target_TCP_speed_4 target_TCP_speed_5 actual_digital_input_bits joint_temperatures_0 joint_temperatures_1 joint_temperatures_2 joint_temperatures_3 joint_temperatures_4 joint_temperatures_5 actual_execution_time robot_mode joint_mode_0 joint_mode_1 joint_mode_2 joint_mode_3 joint_mode_4 joint_mode_5 safety_status actual_tool_accelerometer_0 actual_tool_accelerometer_1 actual_tool_accelerometer_2 speed_scaling target_speed_fraction actual_momentum actual_main_voltage actual_robot_voltage actual_robot_current actual_joint_voltage_0 actual_joint_voltage_1 actual_joint_voltage_2 actual_joint_voltage_3 actual_joint_voltage_4 actual_joint_voltage_5 actual_digital_output_bits runtime_state joint_position_deviation_ratio
11086.474 0.43960562348365784 -2.215268751183981 -0.0032134056091308594 -0.9263330858996888 1.0760365724563599 -1.5714452902423304 0.0 0.0 0.0 0.0 0.0 0.0 0.0 0.0 0.0 0.0 0.0 0.0 5.67524647805692e-17 1.078891396522522 0.52717524766922 0.08256247639656067 -0.00014419954095501453 0.0 6.114068915623114e-16 11.576797804225942 4.277792240666628 0.31528744828943517 -0.0005507910195739975 0.0 0.43959304690361023 -2.2152544460692347 -0.0032097697257995605 -0.926383988266327 1.0760706663131714 -1.5714214483844202 0.0 0.0 -0.0 -0.0 0.0 2.845280479872968e-37 0.0006267726421356201 1.2922117710113525 0.6608409285545349 0.3711927533149719 -0.023574255406856537 0.00900179147720337 5.67524647805692e-17 1.078891396522522 0.52717524766922 0.08256247639656067 -0.00014419954095501453 0.0 0.39659031793140526 -0.007594741774154523 0.6024027881854781 2.1937032162970977 -0.06291633929714109 2.185307407579309 6.2564802224004906e-55 1.0395975765541894e-53 -2.4678874220870964e-55 2.840103890566619e-37 -1.7122256922965586e-38 -1.0664507531907724e-39 -5.317738149779583 1.5102407623403273 -17.742921212060768 0.19846701140836043 1.325545178041843 0.23364216654402212 0.39659297289509876 -0.007591575344966737 0.6024010859978037 2.1936561783894652 -0.06292932716213658 2.1853235763539423 0.0 0.0 0.0 0.0 0.0 0.0 65536 30.75 33.0 34.125 39.0625 42.0625 42.1875 0.657348 7 253 253 253 253 253 253 1 9.308656692504883 -0.13407529890537262 0.019153613597154617 0.0 1.0 0.0 47.70838165283203 47.74778747558594 0.491242915391922 47.6279296875 47.48460006713867 47.498931884765625 47.61359786987305 47.47026824951172 47.38426971435547 0 1 0.0002094109853108724
11086.482 0.43960562348365784 -2.215268751183981 -0.0032134056091308594 -0.9263330858996888 1.0760365724563599 -1.5714452902423304 0.0 0.0 0.0 0.0 0.0 0.0 0.0 0.0 0.0 0.0 0.0 0.0 1.4913232646273636e-17 1.078917145729065 0.5271914005279541 0.0825546383857727 -0.00014320050831884146 0.0 1.6066357285835375e-16 11.577072816614415 4.277923683239506 0.3152574913055091 -0.0005469751183263872 0.0 0.43961265683174133 -2.2152544460692347 -0.0032206536270678043 -0.9263914984515687 1.0760174989700317 -1.5714176336871546 0.0 0.0 -0.0 -0.0 0.0 2.7744308295167053e-40 -0.005063578486442566 1.288205862045288 0.6616658568382263 0.368878573179245 -0.02353356033563614 0.0116146020591259 1.4913232646273636e-17 1.078917145729065 0.5271914005279541 0.0825546383857727 -0.00014320050831884146 0.0 0.3965932734237183 -0.007590419221772934 0.6023999041274878 2.193701447839894 -0.06294761252445687 2.1852701139880417 1.2314179849788536e-58 2.0304296546216212e-57 2.4064351462182177e-58 2.769377361827215e-40 -1.6705205403665097e-41 -1.0443505820315835e-42 -5.27443936727031 1.704432729648023 -17.63681344872429 0.20230482888915613 1.3273252987309732 0.23736891514339592 0.39659297289509876 -0.007591575344966737 0.6024010859978037 2.1936561783894652 -0.06292932716213658 2.1853235763539423 0.0 0.0 0.0 0.0 0.0 0.0 65536 30.75 33.0 34.125 39.0625 42.0625 42.1875 0.650701 7 253 253 253 253 253 253 1 9.442731857299805 0.05746084079146385 0.019153613597154617 0.0 1.0 0.0 47.723602294921875 47.75763702392578 0.5046685338020325 47.6279296875 47.498931884765625 47.498931884765625 47.64226150512695 47.47026824951172 47.38426971435547 0 1 0.00010924872185569257
11086.49 0.43960562348365784 -2.215268751183981 -0.0032134056091308594 -0.9263330858996888 1.0760365724563599 -1.5714452902423304 0.0 0.0 0.0 0.0 0.0 0.0 0.0 0.0 0.0 0.0 0.0 0.0 1.3160003485632792e-17 1.0788400173187256 0.5271306037902832 0.08252517879009247 -0.00013855872384738177 0.0 1.4177564513812452e-16 11.576245803670442 4.277430125220034 0.3151449974997365 -0.0005292451281369999 0.0 0.43959304690361023 -2.2152849636473597 -0.003222106955945492 -0.9263826173594971 1.0760140419006348 -1.5714400450335901 0.0 0.0 -0.0 -0.0 0.0 2.704506036146897e-43 0.009990081191062927 1.3002204895019531 0.6603745222091675 0.38096463680267334 -0.03825104236602783 0.002021338790655136 1.3160003485632792e-17 1.0788400173187256 0.5271306037902832 0.08252517879009247 -0.00013855872384738177 0.0 0.39660519362034585 -0.007592822943758957 0.6023894638813894 2.193696880513138 -0.0629360312509402 2.1852190590491176 -1.4936053285692875e-61 -2.4777354653075788e-60 0.0 2.699575965174841e-43 -1.6290411910490992e-44 -1.0235027307205213e-45 -5.123451274300642 1.7375723464334627 -17.74139976745351 0.20162552355295454 1.3289022841227893 0.2375311541314256 0.39659297289509876 -0.007591575344966737 0.6024010859978037 2.1936561783894652 -0.06292932716213658 2.1853235763539423 0.0 0.0 0.0 0.0 0.0 0.0 65536 30.75 33.0 34.125 39.0625 42.0625 42.1875 0.656124 7 253 253 253 253 253 253 1 9.404424667358398 0.038307227194309235 0.019153613597154617 0.0 1.0 0.0 47.702110290527344 47.74688720703125 0.5404736995697021 47.64226150512695 47.5275993347168 47.455936431884766 47.61359786987305 47.44160079956055 47.41293716430664 0 1 0.00030517578125
11086.498 0.43960562348365784 -2.215268751183981 -0.0032134056091308594 -0.9263330858996888 1.0760365724563599 -1.5714452902423304 0.0 0.0 0.0 0.0 0.0 0.0 0.0 0.0 0.0 0.0 0.0 0.0 -9.572219413502852e-17 1.078902244567871 0.5271758437156677 0.08255816251039505 -0.00014386915427166969 0.0 -1.0312364826465601e-15 11.57691407290092 4.277797358377222 0.3152709677135406 -0.0005495291156048324 0.0 0.4396090507507324 -2.215288301507467 -0.003182315733283758 -0.9263574641994019 1.0760307312011719 -1.5714214483844202 0.0 0.0 -0.0 -0.0 0.0 0.0 -0.008404776453971863 1.2915878295898438 0.6693224310874939 0.37626034021377563 -0.021926430985331535 0.009998690336942673 -9.572219413502852e-17 1.078902244567871 0.5271758437156677 0.08255816251039505 -0.00014386915427166969 0.0 0.39659562124539627 -0.007589485205188598 0.6023986695450867 2.193675396923225 -0.06295197857532249 2.1853192542652065 0.0 0.0 0.0 0.0 0.0 0.0 -5.374325769380646 1.8516491396942838 -17.82757599287585 0.2002211760095556 1.3273275018364028 0.23635383216115927 0.39659297289509876 -0.007591575344966737 0.6024010859978037 2.1936561783894652 -0.06292932716213658 2.1853235763539423 0.0 0.0 0.0 0.0 0.0 0.0 65536 30.75 33.0 34.125 39.0625 42.0625 42.1875 0.647328 7 253 253 253 253 253 253 1 9.461885452270508 0.1149216815829277 -0.019153613597154617 0.0 1.0 0.0 47.70927429199219 47.75405502319336 0.5225711464881897 47.6279296875 47.498931884765625 47.455936431884766 47.61359786987305 47.47026824951172 47.39860534667969 0 1 0.000169674555460612
11086.506 0.43960562348365784 -2.215268751183981 -0.0032134056091308594 -0.9263330858996888 1.0760365724563599 -1.5714452902423304 0.0 0.0 0.0 0.0 0.0 0.0 0.0 0.0 0.0 0.0 0.0 0.0 -1.5311788117736386e-16 1.0789129734039307 0.52717125415802 0.08254242688417435 -0.00014150385686662048 0.0 -1.649573000794786e-15 11.577029677869604 4.277760132330758 0.31521088494616956 -0.0005404945275020284 0.0 0.43958956003189087 -2.215288301507467 -0.0031946676317602396 -0.9263183635524292 1.0760544538497925 -1.5714333693133753 0.0 0.0 -0.0 -0.0 0.0 0.0 -0.0016199499368667603 1.2787482738494873 0.65561842918396 0.3792279064655304 -0.03625155985355377 -0.018796995282173157 -1.5311788117736386e-16 1.0789129734039307 0.52717125415802 0.08254242688417435 -0.00014150385686662048 0.0 0.3965954454621056 -0.007595095372496516 0.6023992559285692 2.193651941425796 -0.06294747100767166 2.1853473108325314 0.0 0.0 0.0 0.0 0.0 0.0 -5.372495850360874 1.8047892839830157 -17.825704024485535 0.20058372328268145 1.327877405111681 0.2319079365567374 0.39659297289509876 -0.007591575344966737 0.6024010859978037 2.1936561783894652 -0.06292932716213658 2.1853235763539423 0.0 0.0 0.0 0.0 0.0 0.0 65536 30.75 33.0 34.125 39.0625 42.0625 42.1875 0.645804 7 253 253 253 253 253 253 1 9.366117477416992 0.07661445438861847 -0.09576806426048279 0.0 1.0 0.0 47.725399017333984 47.75584411621094 0.5606174468994141 47.64226150512695 47.44160079956055 47.498931884765625 47.61359786987305 47.455936431884766 47.39860534667969 0 1 0.00025898218154907227
11086.514 0.43960562348365784 -2.215268751183981 -0.0032134056091308594 -0.9263330858996888 1.0760365724563599 -1.5714452902423304 0.0 0.0 0.0 0.0 0.0 0.0 0.0 0.0 0.0 0.0 0.0 0.0 -9.879895528914606e-17 1.078946590423584 0.5272155404090881 0.08256734162569046 -0.00014515072689391673 0.0 -1.0643830730740635e-15 11.577388412526794 4.278118866987949 0.31530600876279824 -0.0005544242654885955 0.0 0.4396090507507324 -2.215288301507467 -0.0032258033752441406 -0.9263391059688111 1.0760619640350342 -1.5714557806598108 0.0 0.0 -0.0 -0.0 0.0 0.0 -0.00394497811794281 1.3102712631225586 0.6726257801055908 0.3738439083099365 -0.05311669781804085 -0.007983274757862091 -9.879895528914606e-17 1.078946590423584 0.5272155404090881 0.08256734162569046 -0.00014515072689391673 0.0 0.3966044372709045 -0.007582577813755265 0.6023910327573484 2.1936950890353764 -0.06286753535118868 2.1852875313304234 0.0 0.0 0.0 0.0 0.0 0.0 -5.373452359961093 1.6290766444264106 -17.73003020363321 0.19950098106798614 1.332263287489735 0.23262593694688105 0.39659297289509876 -0.007591575344966737 0.6024010859978037 2.1936561783894652 -0.06292932716213658 2.1853235763539423 0.0 0.0 0.0 0.0 0.0 0.0 65536 30.75 33.0 34.125 39.0625 42.0625 42.1875 0.641436 7 253 253 253 253 253 253 1 9.481039047241211 -0.038307227194309235 -0.05746084079146385 0.0 1.0 0.0 47.737037658691406 47.764801025390625 0.424098938703537 47.64226150512695 47.498931884765625 47.513267517089844 47.61359786987305 47.44160079956055 47.369937896728516 0 1 0.0002244114875793457
11086.521999999999 0.43960562348365784 -2.215268751183981 -0.0032134056091308594 -0.9263330858996888 1.0760365724563599 -1.5714452902423304 0.0 0.0 0.0 0.0 0.0 0.0 0.0 0.0 0.0 0.0 0.0 0.0 -3.247749974644092e-17 1.0789395570755005 0.5271880030632019 0.08255705237388611 -0.00014346626994665712 0.0 -3.498873170190346e-16 11.577313477457242 4.277895733872176 0.315266729402892 -0.000547990178552787 0.0 0.43961265683174133 -2.215300222436422 -0.003209781600162387 -0.9263629478267212 1.0760096311569214 -1.5714519659625452 0.0 0.0 -0.0 -0.0 0.0 0.0 0.0240907222032547 1.3209844827651978 0.6457747220993042 0.3693620562553406 -0.042235150933265686 -0.0031340867280960083 -3.247749974644092e-17 1.0789395570755005 0.5271880030632019 0.08255705237388611 -0.00014346626994665712 0.0 0.3966071683839639 -0.007584555991641898 0.6023882226663557 2.1936865478713585 -0.06291455575239661 2.185240812482314 0.0 0.0 0.0 0.0 0.0 0.0 -5.278236800918619 1.4317269003777633 -17.793147999529385 0.19995509004822232 1.32786496168507 0.23525405615452696 0.39659297289509876 -0.007591575344966737 0.6024010859978037 2.1936561783894652 -0.06292932716213658 2.1853235763539423 0.0 0.0 0.0 0.0 0.0 0.0 65536 30.75 33.0 34.125 39.0625 42.0625 42.1875 0.674497 7 253 253 253 253 253 253 1 9.519346237182617 -0.038307227194309235 -0.05746084079146385 0.0 1.0 0.0 47.73793411254883 47.7639045715332 0.48676595091819763 47.656593322753906 47.513267517089844 47.498931884765625 47.6279296875 47.47026824951172 47.39860534667969 0 1 0.0003147125244140625
11086.529999999999 0.43960562348365784 -2.215268751183981 -0.0032134056091308594 -0.9263330858996888 1.0760365724563599 -1.5714452902423304 0.0 0.0 0.0 0.0 0.0 0.0 0.0 0.0 0.0 0.0 0.0 0.0 -6.025244462329337e-17 1.0789260864257812 0.5272073745727539 0.0825667455792427 -0.00014520563127007335 0.0 -6.49112989207352e-16 11.57716986819824 4.2780531536745405 0.3153037293699878 -0.0005546339718520759 0.0 0.43959665298461914 -2.215238233605856 -0.0032134056091308594 -0.9264033001712342 1.0760425329208374 -1.5714214483844202 0.0 0.0 -0.0 -0.0 0.0 0.0 0.007969006896018982 1.2969216108322144 0.660524845123291 0.364311546087265 -0.021084848791360855 -0.0038052797317504883 -6.025244462329337e-17 1.0789260864257812 0.5272073745727539 0.0825667455792427 -0.00014520563127007335 0.0 0.3965859148443576 -0.007597930001752421 0.6024062276675881 2.1936956822205853 -0.06293957512907243 2.185286720426476 0.0 0.0 0.0 0.0 0.0 0.0 -5.357342071350951 1.576666253416161 -17.80317818328086 0.19881912987230466 1.32447780170518 0.23192253310702557 0.39659297289509876 -0.007591575344966737 0.6024010859978037 2.1936561783894652 -0.06292932716213658 2.1853235763539423 0.0 0.0 0.0 0.0 0.0 0.0 65536 30.75 33.0 34.125 39.0625 42.0625 42.1875 0.670608 7 253 253 253 253 253 253 1 9.404424667358398 -0.09576806426048279 0.07661445438861847 0.0 1.0 0.0 47.72987747192383 47.76301193237305 0.5404736995697021 47.61359786987305 47.498931884765625 47.498931884765625 47.61359786987305 47.455936431884766 47.39860534667969 0 1 0.0002364052973765259
11086.537999999999 0.43960562348365784 -2.215268751183981 -0.0032134056091308594 -0.9263330858996888 1.0760365724563599 -1.5714452902423304 0.0 0.0 0.0 0.0 0.0 0.0 0.0 0.0 0.0 0.0 0.0 0.0 -2.7760585021418535e-17 1.0789560079574585 0.527224063873291 0.08256465941667557 -0.00014457527140621096 0.0 -2.990709563265455e-16 11.577490775804277 4.2781888117976 0.3152957580956591 -0.0005522262323908044 0.0 0.43958956003189087 -2.2152725658812464 -0.00324504473246634 -0.9263346952250977 1.0759847164154053 -1.5714681784259241 0.0 0.0 -0.0 -0.0 0.0 0.0 -0.010585933923721313 1.278174877166748 0.6664065718650818 0.36979812383651733 -0.02518649399280548 0.006337281316518784 -2.7760585021418535e-17 1.0789560079574585 0.527224063873291 0.08256465941667557 -0.00014457527140621096 0.0 0.3966015658277584 -0.007598522223482925 0.6023929696555513 2.1936388378599125 -0.06295881939365391 2.1852324656633244 0.0 0.0 0.0 0.0 0.0 0.0 -5.301861205993718 1.5224029319414822 -17.747776974191748 0.20102421204953425 1.3240965715421367 0.23217668677775807 0.39659297289509876 -0.007591575344966737 0.6024010859978037 2.1936561783894652 -0.06292932716213658 2.1853235763539423 0.0 0.0 0.0 0.0 0.0 0.0 65536 30.75 33.0 34.125 39.0625 42.0625 42.1875 0.649849 7 253 253 253 253 253 253 1 9.442731857299805 -0.07661445438861847 0.07661445438861847 0.0 1.0 0.0 47.705692291259766 47.74509811401367 0.5046685338020325 47.64226150512695 47.47026824951172 47.498931884765625 47.584930419921875 47.455936431884766 47.41293716430664 0 1 0.00029044684197288007
11086.546 0.43960562348365784 -2.215268751183981 -0.0032134056091308594 -0.9263330858996888 1.0760365724563599 -1.5714452902423304 0.0 0.0 0.0 0.0 0.0 0.0 0.0 0.0 0.0 0.0 0.0 0.0 -1.6064408324235108e-17 1.0788986682891846 0.5271710753440857 0.08255364745855331 -0.00014330493286252022 0.0 -1.73065445460247e-16 11.576875245668958 4.277758531145261 0.3152537009639961 -0.0005473739353732398 0.0 0.43959304690361023 -2.2152849636473597 -0.003209781600162387 -0.9263585370830079 1.0760337114334106 -1.5714367071734827 0.0 0.0 -0.0 -0.0 0.0 0.0 0.0068883150815963745 1.2857880592346191 0.6516953110694885 0.373835027217865 -0.02865537256002426 0.011700240895152092 -1.6064408324235108e-17 1.0788986682891846 0.5271710753440857 0.08255364745855331 -0.00014330493286252022 0.0 0.3966005928786467 -0.007593199618024168 0.6023940063211611 2.1936809381551017 -0.06293659250840589 2.185274496222837 0.0 0.0 0.0 0.0 0.0 0.0 -5.263088840640135 1.5419256926579297 -17.71517258204472 0.2001852353574674 1.3268513931564878 0.23799909654124046 0.39659297289509876 -0.007591575344966737 0.6024010859978037 2.1936561783894652 -0.06292932716213658 2.1853235763539423 0.0 0.0 0.0 0.0 0.0 0.0 65536 30.75 33.0 34.125 39.0625 42.0625 42.1875 0.648348 7 253 253 253 253 253 253 1 9.366117477416992 -0.09576806426048279 0.07661445438861847 0.0 1.0 0.0 47.733455657958984 47.767486572265625 0.4979557394981384 47.6279296875 47.5275993347168 47.498931884765625 47.59926223754883 47.47026824951172 47.39860534667969 0 1 0.00014026959737141928
11086.554 0.43960562348365784 -2.215268751183981 -0.0032134056091308594 -0.9263330858996888 1.0760365724563599 -1.5714452902423304 0.0 0.0 0.0 0.0 0.0 0.0 0.0 0.0 0.0 0.0 0.0 0.0 -4.3006168911648626e-17 1.0789167881011963 0.5271909832954407 0.08255374431610107 -0.00014340697089210153 0.0 -4.63314991219683e-16 11.577069363288107 4.277920229913198 0.3152541001715475 -0.0005477637417908799 0.0 0.4396001100540161 -2.215257783929342 -0.0032097550574690104 -0.9263466161540528 1.0761003494262695 -1.5714452902423304 0.0 0.0 -0.0 -0.0 0.0 0.0 -0.025939062237739563 1.2859910726547241 0.6625691652297974 0.38414573669433594 -0.027675939723849297 -0.00787920132279396 -4.3006168911648626e-17 1.0789167881011963 0.5271909832954407 0.08255374431610107 -0.00014340697089210153 0.0 0.3965890087333148 -0.007589902939029694 0.602404639816666 2.193685579175783 -0.06286702493894233 2.1853548122339657 0.0 0.0 0.0 0.0 0.0 0.0 -5.291370685115011 1.4971489432994423 -17.67383936312139 0.20102823385186572 1.3265891919053345 0.2389801965731708 0.39659297289509876 -0.007591575344966737 0.6024010859978037 2.1936561783894652 -0.06292932716213658 2.1853235763539423 0.0 0.0 0.0 0.0 0.0 0.0 65536 30.75 33.0 34.125 39.0625 42.0625 42.1875 0.64914 7 253 253 253 253 253 253 1 9.404424667358398 0.019153613597154617 0.13407529890537262 0.0 1.0 0.0 47.700321197509766 47.75226593017578 0.5829969644546509 47.6279296875 47.47026824951172 47.455936431884766 47.584930419921875 47.427268981933594 47.38426971435547 0 1 0.00013828277587890625
11086.562 0.43960562348365784 -2.215268751183981 -0.0032134056091308594 -0.9263330858996888 1.0760365724563599 -1.5714452902423304 0.0 0.0 0.0 0.0 0.0 0.0 0.0 0.0 0.0 0.0 0.0 0.0 -1.1074807554584207e-16 1.0789364576339722 0.5272022485733032 0.08255556970834732 -0.0001435845479136333 0.0 -1.1931137188878894e-15 11.577280780343331 4.278011234804486 0.3152610666396751 -0.0005484420065998911 0.0 0.4395861029624939 -2.2152849636473597 -0.0031947134993970394 -0.9262854021838685 1.0760587453842163 -1.5714247862445276 0.0 0.0 -0.0 -0.0 0.0 0.0 0.002290189266204834 1.2959474325180054 0.6528466939926147 0.37201830744743347 -0.020268552005290985 0.006010815501213074 -1.1074807554584207e-16 1.0789364576339722 0.5272022485733032 0.08255556970834732 -0.0001435845479136333 0.0 0.3965915511589034 -0.007597883066088421 0.6024031162243816 2.193628732645607 -0.06297412893048819 2.1853955815339448 0.0 0.0 0.0 0.0 0.0 0.0 -5.146381940976157 1.552909540566877 -17.791454116632412 0.19892619928492533 1.327088412355427 0.23841156454010598 0.39659297289509876 -0.007591575344966737 0.6024010859978037 2.1936561783894652 -0.06292932716213658 2.1853235763539423 0.0 0.0 0.0 0.0 0.0 0.0 65536 30.75 33.0 34.125 39.0625 42.0625 42.1875 0.653256 7 253 253 253 253 253 253 1 9.404424667358398 -0.05746084079146385 0.1149216815829277 0.0 1.0 0.0 47.734352111816406 47.76569747924805 0.4666222333908081 47.656593322753906 47.48460006713867 47.455936431884766 47.64226150512695 47.455936431884766 47.427268981933594 0 1 0.0001621246337890625
11086.57 0.43960562348365784 -2.215268751183981 -0.0032134056091308594 -0.9263330858996888 1.0760365724563599 -1.5714452902423304 0.0 0.0 0.0 0.0 0.0 0.0 0.0 0.0 0.0 0.0 0.0 0.0 -2.956692248610773e-17 1.0789148807525635 0.5271885395050049 0.08254846185445786 -0.0001422861823812127 0.0 -3.1853102916004604e-16 11.577049170613217 4.277900037238307 0.3152339074966559 -0.0005434827148933101 0.0 0.43961265683174133 -2.215257783929342 -0.0032134056091308594 -0.9263540667346497 1.0760425329208374 -1.5714295546161097 0.0 0.0 -0.0 -0.0 0.0 0.0 0.008540526032447815 1.2882362604141235 0.6621572971343994 0.3850744664669037 -0.017819784581661224 0.0026396382600069046 -2.956692248610773e-17 1.0789148807525635 0.5271885395050049 0.08254846185445786 -0.0001422861823812127 0.0 0.39659020728321237 -0.007589591373895152 0.6024032792226267 2.193677627197537 -0.06292784850557759 2.1853263653516377 0.0 0.0 0.0 0.0 0.0 0.0 -5.162952251758974 1.5627894172210837 -17.6331984768177 0.2000736702247929 1.3294793533745828 0.23911401677136127 0.39659297289509876 -0.007591575344966737 0.6024010859978037 2.1936561783894652 -0.06292932716213658 2.1853235763539423 0.0 0.0 0.0 0.0 0.0 0.0 65536 30.75 33.0 34.125 39.0625 42.0625 42.1875 0.659448 7 253 253 253 253 253 253 1 9.346963882446289 0.07661445438861847 -0.019153613597154617 0.0 1.0 0.0 47.72808074951172 47.74778747558594 0.47557616233825684 47.64226150512695 47.5275993347168 47.48460006713867 47.61359786987305 47.47026824951172 47.41293716430664 0 1 0.00016033649444580078
11086.578 0.43960562348365784 -2.215268751183981 -0.0032134056091308594 -0.9263330858996888 1.0760365724563599 -1.5714452902423304 0.0 0.0 0.0 0.0 0.0 0.0 0.0 0.0 0.0 0.0 0.0 0.0 -6.383720055263688e-17 1.0789662599563599 0.5272188782691956 0.08256973326206207 -0.00014549650950357318 0.0 -6.877323686949064e-16 11.577600930578717 4.2781461377476475 0.31531511610762036 -0.0005557450558927786 0.0 0.4396090507507324 -2.2152544460692347 -0.003206085180863738 -0.926383988266327 1.076038122177124 -1.5714400450335901 0.0 0.0 -0.0 -0.0 0.0 0.0 -0.01765073835849762 1.2658939361572266 0.6504374742507935 0.37844574451446533 -0.02091144770383835 -0.01704273372888565 -6.383720055263688e-17 1.0789662599563599 0.5272188782691956 0.08256973326206207 -0.00014549650950357318 0.0 0.3965894091892419 -0.007591788579948471 0.6024035680079822 2.193683415680278 -0.06291534276346894 2.185293755116668 0.0 0.0 0.0 0.0 0.0 0.0 -5.209526076009007 1.7228955845439777 -17.83983192230288 0.20024515105269233 1.3293608503020657 0.23312672719435093 0.39659297289509876 -0.007591575344966737 0.6024010859978037 2.1936561783894652 -0.06292932716213658 2.1853235763539423 0.0 0.0 0.0 0.0 0.0 0.0 65536 30.75 33.0 34.125 39.0625 42.0625 42.1875 0.662353 7 253 253 253 253 253 253 1 9.576807022094727 -0.05746084079146385 -0.09576806426048279 0.0 1.0 0.0 47.725399017333984 47.74061965942383 0.5248122811317444 47.64226150512695 47.48460006713867 47.47026824951172 47.61359786987305 47.47026824951172 47.39860534667969 0 1 0.0003528594970703125
11086.586 0.43960562348365784 -2.215268751183981 -0.0032134056091308594 -0.9263330858996888 1.0760365724563599 -1.5714452902423304 0.0 0.0 0.0 0.0 0.0 0.0 0.0 0.0 0.0 0.0 0.0 0.0 3.0102320100666355e-17 1.0789161920547485 0.5271902680397034 0.08255714923143387 -0.00014362136425916106 0.0 3.24298999689638e-16 11.57706335800965 4.277914224634741 0.31526707577954205 -0.0005485826511024779 0.0 0.43961265683174133 -2.2152654133238734 -0.003222121624276042 -0.9263540667346497 1.076067566871643 -1.5714486281024378 0.0 0.0 -0.0 -0.0 0.0 0.0 -0.017929598689079285 1.297828197479248 0.6668197512626648 0.37887296080589294 -0.027196357026696205 0.008519181981682777 3.0102320100666355e-17 1.0789161920547485 0.5271902680397034 0.08255714923143387 -0.00014362136425916106 0.0 0.3965954696921083 -0.007584883744841335 0.6023987305333107 2.1936943502508917 -0.06287143990751141 2.1853098374225786 0.0 0.0 0.0 0.0 0.0 0.0 -5.114776645436989 1.586470859340464 -17.87413432807823 0.20197019865576715 1.3286180599425157 0.23855648905901342 0.39659297289509876 -0.007591575344966737 0.6024010859978037 2.1936561783894652 -0.06292932716213658 2.1853235763539423 0.0 0.0 0.0 0.0 0.0 0.0 65536 30.75 33.0 34.125 39.0625 42.0625 42.1875 0.665136 7 253 253 253 253 253 253 1 9.423578262329102 0.038307227194309235 -0.05746084079146385 0.0 1.0 0.0 47.704795837402344 47.74151611328125 0.46214526891708374 47.6279296875 47.48460006713867 47.455936431884766 47.584930419921875 47.47026824951172 47.41293716430664 0 1 8.381741281482391e-05
11086.594 0.43960562348365784 -2.215268751183981 -0.0032134056091308594 -0.9263330858996888 1.0760365724563599 -1.5714452902423304 0.0 0.0 0.0 0.0 0.0 0.0 0.0 0.0 0.0 0.0 0.0 0.0 -9.63209934891781e-17 1.0789304971694946 0.5271944403648376 0.08254888653755188 -0.00014234478294383734 0.0 -1.0376874930174744e-15 11.577217231852671 4.277947686313825 0.3152355282910904 -0.0005437065288025787 0.0 0.4395812451839447 -2.2152816257872523 -0.0031873933039605618 -0.9263302844813843 1.0760587453842163 -1.5714333693133753 0.0 0.0 -0.0 -0.0 0.0 0.0 -0.02339412271976471 1.30733323097229 0.6514268517494202 0.3711751699447632 -0.0202126894146204 -0.0009180977940559387 -9.63209934891781e-17 1.0789304971694946 0.5271944403648376 0.08254888653755188 -0.00014234478294383734 0.0 0.3965919214773459 -0.007599636387301809 0.6024021863256008 2.19364838670614 -0.06295290686114385 2.1853476552266917 0.0 0.0 0.0 0.0 0.0 0.0 -5.105775541605612 1.696855503589363 -17.890348954937018 0.19974147025767228 1.3299449351566244 0.23045531136261854 0.39659297289509876 -0.007591575344966737 0.6024010859978037 2.1936561783894652 -0.06292932716213658 2.1853235763539423 0.0 0.0 0.0 0.0 0.0 0.0 65536 30.75 33.0 34.125 39.0625 42.0625 42.1875 0.65388 7 253 253 253 253 253 253 1 9.519346237182617 0.05746084079146385 0.038307227194309235 0.0 1.0 0.0 47.72092056274414 47.76122283935547 0.5136224627494812 47.6279296875 47.498931884765625 47.513267517089844 47.6279296875 47.47026824951172 47.41293716430664 0 1 0.0001621246337890625
11086.601999999999 0.43960562348365784 -2.215268751183981 -0.0032134056091308594 -0.9263330858996888 1.0760365724563599 -1.5714452902423304 0.0 0.0 0.0 0.0 0.0 0.0 0.0 0.0 0.0 0.0 0.0 0.0 -3.98220132442421e-17 1.078931212425232 0.5271913409233093 0.08254791051149368 -0.00014230789383873343 0.0 -4.290113810831904e-16 11.57722509018029 4.2779231261736115 0.315231787846521 -0.0005435656484181921 0.0 0.43959304690361023 -2.2152725658812464 -0.0031983184162527323 -0.9263914984515687 1.076054334640503 -1.5714643637286585 0.0 0.0 -0.0 -0.0 0.0 0.0 -0.009383141994476318 1.2902748584747314 0.6636819243431091 0.3612920343875885 -0.010652568191289902 -0.0040457583963871 -3.98220132442421e-17 1.078931212425232 0.5271913409233093 0.08254791051149368 -0.00014230789383873343 0.0 0.3965955428004161 -0.007593736863197634 0.60239813548403 2.1936861192615225 -0.06287918704468799 2.185259932648867 0.0 0.0 0.0 0.0 0.0 0.0 -5.28667478469348 1.5810656342958849 -17.66774104780702 0.2005710706079318 1.3271364631658227 0.23717611471112657 0.39659297289509876 -0.007591575344966737 0.6024010859978037 2.1936561783894652 -0.06292932716213658 2.1853235763539423 0.0 0.0 0.0 0.0 0.0 0.0 65536 30.75 33.0 34.125 39.0625 42.0625 42.1875 0.651684 7 253 253 253 253 253 253 1 9.500192642211914 0.038307227194309235 -0.09576806426048279 0.0 1.0 0.0 47.718231201171875 47.75584411621094 0.5180941224098206 47.64226150512695 47.44160079956055 47.498931884765625 47.61359786987305 47.455936431884766 47.39860534667969 0 1 0.00019550323486328125
11086.609999999999 0.43960562348365784 -2.215268751183981 -0.0032134056091308594 -0.9263330858996888 1.0760365724563599 -1.5714452902423304 0.0 0.0 0.0 0.0 0.0 0.0 0.0 0.0 0.0 0.0 0.0 0.0 -7.306560466063778e-17 1.0789008140563965 0.5271738767623901 0.08254881203174591 -0.00014218436263035983 0.0 -7.871520312167255e-16 11.576897726470513 4.2777810119468125 0.3152352608076081 -0.0005430937577858585 0.0 0.4396090507507324 -2.2152544460692347 -0.0032330513931810856 -0.9263914984515687 1.076050043106079 -1.571395222340719 0.0 0.0 -0.0 -0.0 0.0 0.0 0.01478607952594757 1.2875828742980957 0.6472747325897217 0.38854318857192993 -0.01908007636666298 -0.01400001347064972 -7.306560466063778e-17 1.0789008140563965 0.5271738767623901 0.08254881203174591 -0.00014218436263035983 0.0 0.39659629214982584 -0.007587516552387066 0.6023972959932716 2.193735945659354 -0.0629350749804659 2.185281683089344 0.0 0.0 0.0 0.0 0.0 0.0 -5.39725832134087 1.6457386746868397 -17.720368321497446 0.20152016079546786 1.325715534035072 0.229472609595356 0.39659297289509876 -0.007591575344966737 0.6024010859978037 2.1936561783894652 -0.06292932716213658 2.1853235763539423 0.0 0.0 0.0 0.0 0.0 0.0 65536 30.75 33.0 34.125 39.0625 42.0625 42.1875 0.654504 7 253 253 253 253 253 253 1 9.423578262329102 -0.019153613597154617 0.019153613597154617 0.0 1.0 0.0 47.705692291259766 47.75405502319336 0.45319661498069763 47.6279296875 47.455936431884766 47.513267517089844 47.57059860229492 47.455936431884766 47.427268981933594 0 1 0.00027954578399658203
11086.618 0.43960562348365784 -2.215268751183981 -0.0032134056091308594 -0.9263330858996888 1.0760365724563599 -1.5714452902423304 0.0 0.0 0.0 0.0 0.0 0.0 0.0 0.0 0.0 0.0 0.0 0.0 -1.391455598604244e-17 1.0789207220077515 0.5271961688995361 0.08256468921899796 -0.00014484793064184487 0.0 -1.4990461330188883e-16 11.577111139156415 4.2779620057815055 0.31529587603985343 -0.0005532676382880307 0.0 0.43961265683174133 -2.2152849636473597 -0.0031822773162275553 -0.9263839286616822 1.0760425329208374 -1.5714486281024378 0.0 0.0 -0.0 -0.0 0.0 0.0 0.008610710501670837 1.2802135944366455 0.6564871072769165 0.3765944540500641 -0.02325781062245369 -0.0023784786462783813 -1.391455598604244e-17 1.0789207220077515 0.5271961688995361 0.08256468921899796 -0.00014484793064184487 0.0 0.3965963846479525 -0.00758666785669485 0.6023977085121693 2.1936886487221683 -0.06289369777719207 2.1852855156849 0.0 0.0 0.0 0.0 0.0 0.0 -5.375985878749747 1.517344338568817 -17.789100603829986 0.20082853586461452 1.320883123479136 0.23668329369509258 0.39659297289509876 -0.007591575344966737 0.6024010859978037 2.1936561783894652 -0.06292932716213658 2.1853235763539423 0.0 0.0 0.0 0.0 0.0 0.0 65536 30.75 33.0 34.125 39.0625 42.0625 42.1875 0.655465 7 253 253 253 253 253 253 1 9.404424667358398 0.05746084079146385 0.1149216815829277 0.0 1.0 0.0 47.7218132019043 47.75942611694336 0.5046685338020325 47.61359786987305 47.498931884765625 47.498931884765625 47.584930419921875 47.47026824951172 47.39860534667969 0 1 0.00024378299713134766
11086.626 0.43960562348365784 -2.215268751183981 -0.0032134056091308594 -0.9263330858996888 1.0760365724563599 -1.5714452902423304 0.0 0.0 0.0 0.0 0.0 0.0 0.0 0.0 0.0 0.0 0.0 0.0 -3.836245305339228e-18 1.0788629055023193 0.5271374583244324 0.08253491669893265 -0.00013995036715641618 0.0 -4.1328721075646216e-17 11.576491363607904 4.27748580004859 0.31518218923362823 -0.0005345606927535086 0.0 0.43961265683174133 -2.215264459649557 -0.0032019615173339844 -0.9263885182193299 1.0760174989700317 -1.5714333693133753 0.0 0.0 -0.0 -0.0 0.0 0.0 0.014107584953308105 1.2882851362228394 0.6550921201705933 0.38545605540275574 -0.021747980266809464 0.006629440933465958 -3.836245305339228e-18 1.0788629055023193 0.5271374583244324 0.08253491669893265 -0.00013995036715641618 0.0 0.39659279991182267 -0.007590619804123864 0.6024005057116182 2.1936854862423867 -0.06293590126312237 2.185275977692769 0.0 0.0 0.0 0.0 0.0 0.0 -5.255347770827836 1.4933491688948886 -17.69714625776744 0.20121866410608047 1.324237838810516 0.23377712583613122 0.39659297289509876 -0.007591575344966737 0.6024010859978037 2.1936561783894652 -0.06292932716213658 2.1853235763539423 0.0 0.0 0.0 0.0 0.0 0.0 65536 30.75 33.0 34.125 39.0625 42.0625 42.1875 0.671616 7 253 253 253 253 253 253 1 9.366117477416992 0.019153613597154617 0.07661445438861847 0.0 1.0 0.0 47.73883056640625 47.764801025390625 0.6008995771408081 47.656593322753906 47.498931884765625 47.498931884765625 47.61359786987305 47.44160079956055 47.41293716430664 0 1 0.0002563264327667033
11086.634 0.43960562348365784 -2.215268751183981 -0.0032134056091308594 -0.9263330858996888 1.0760365724563599 -1.5714452902423304 0.0 0.0 0.0 0.0 0.0 0.0 0.0 0.0 0.0 0.0 0.0 0.0 5.648740302508271e-17 1.0789259672164917 0.527195155620575 0.08255346119403839 -0.00014330788690131158 0.0 6.08551356967889e-16 11.577168066736757 4.277954095903394 0.31525300195642214 -0.0005473852255344716 0.0 0.43959304690361023 -2.2152792416014613 -0.0031947134993970394 -0.9263762396625062 1.0760469436645508 -1.5714519659625452 0.0 0.0 -0.0 -0.0 0.0 0.0 -0.006132796406745911 1.2883164882659912 0.6706250905990601 0.3722272515296936 -0.034419991075992584 0.0009388085454702377 5.648740302508271e-17 1.0789259672164917 0.527195155620575 0.08255346119403839 -0.00014330788690131158 0.0 0.39659621231368314 -0.0075940704422556085 0.6023977601981952 2.1936786081131014 -0.06290695585196948 2.18527712590161 0.0 0.0 0.0 0.0 0.0 0.0 -5.374985321143632 1.4920261992445794 -17.68054438709645 0.20031921468956268 1.3220351202069212 0.23520324538040951 0.39659297289509876 -0.007591575344966737 0.6024010859978037 2.1936561783894652 -0.06292932716213658 2.1853235763539423 0.0 0.0 0.0 0.0 0.0 0.0 65536 30.75 33.0 34.125 39.0625 42.0625 42.1875 0.670357 7 253 253 253 253 253 253 1 9.53849983215332 -0.05746084079146385 0.05746084079146385 0.0 1.0 0.0 47.74509811401367 47.76301193237305 0.5136224627494812 47.61359786987305 47.455936431884766 47.48460006713867 47.6279296875 47.44160079956055 47.38426971435547 0 1 0.00012576580047607422
11086.642 0.43960562348365784 -2.215268751183981 -0.0032134056091308594 -0.9263330858996888 1.0760365724563599 -1.5714452902423304 0.0 0.0 0.0 0.0 0.0 0.0 0.0 0.0 0.0 0.0 0.0 0.0 1.1922855617886233e-16 1.0789120197296143 0.5271846055984497 0.08254514634609222 -0.00014214035763870925 0.0 1.2844757592281382e-15 11.577017537850452 4.277868404475542 0.3152212556203411 -0.0005429257358913637 0.0 0.4396090507507324 -2.215269228021139 -0.0031859397422522306 -0.9263408345035096 1.0760294198989868 -1.5714452902423304 0.0 0.0 -0.0 -0.0 0.0 0.0 0.011064887046813965 1.2908639907836914 0.6560633182525635 0.3609197735786438 -0.03413911908864975 -0.01685383915901184 1.1922855617886233e-16 1.0789120197296143 0.5271846055984497 0.08254514634609222 -0.00014214035763870925 0.0 0.39658739721542924 -0.007593466821150412 0.6024060498667555 2.1936396685539483 -0.06294295267472541 2.1853447057377187 0.0 0.0 0.0 0.0 0.0 0.0 -5.092638898928023 1.6389889486783114 -17.768926415013397 0.19868339161159243 1.3229373792113537 0.2349507311105343 0.39659297289509876 -0.007591575344966737 0.6024010859978037 2.1936561783894652 -0.06292932716213658 2.1853235763539423 0.0 0.0 0.0 0.0 0.0 0.0 65536 30.75 33.0 34.125 39.0625 42.0625 42.1875 0.651972 7 253 253 253 253 253 253 1 9.442731857299805 0.019153613597154617 0.019153613597154617 0.0 1.0 0.0 47.737037658691406 47.75584411621094 0.4890017807483673 47.61359786987305 47.498931884765625 47.47026824951172 47.61359786987305 47.455936431884766 47.41293716430664 0 1 0.00017325083414713543
11086.65 0.43960562348365784 -2.215268751183981 -0.0032134056091308594 -0.9263330858996888 1.0760365724563599 -1.5714452902423304 0.0 0.0 0.0 0.0 0.0 0.0 0.0 0.0 0.0 0.0 0.0 0.0 6.41244241310949e-17 1.078933835029602 0.5272135138511658 0.08258018642663956 -0.00014730238763149828 0.0 6.908266685595519e-16 11.577252108256674 4.278102974881765 0.31535504927295865 -0.0005626428200179508 0.0 0.43957769870758057 -2.215269228021139 -0.003225810592994094 -0.9263629478267212 1.0760749578475952 -1.5714400450335901 0.0 0.0 -0.0 -0.0 0.0 0.0 -0.015500679612159729 1.2731211185455322 0.666561484336853 0.37305304408073425 -0.01400403305888176 0.014450788497924805 6.41244241310949e-17 1.078933835029602 0.5272135138511658 0.08258018642663956 -0.00014730238763149828 0.0 0.3965983375721883 -0.007596621350944273 0.6023958745939072 2.1936965028904973 -0.06290268358761646 2.1852804260701983 0.0 0.0 0.0 0.0 0.0 0.0 -5.304377391322152 1.5783148759540007 -17.74490091586148 0.2003531335301399 1.325741032354239 0.24141599948096032 0.39659297289509876 -0.007591575344966737 0.6024010859978037 2.1936561783894652 -0.06292932716213658 2.1853235763539423 0.0 0.0 0.0 0.0 0.0 0.0 65536 30.75 33.0 34.125 39.0625 42.0625 42.1875 0.656196 7 253 253 253 253 253 253 1 9.423578262329102 0.09576806426048279 -0.07661445438861847 0.0 1.0 0.0 47.7218132019043 47.75942611694336 0.4890017807483673 47.656593322753906 47.513267517089844 47.498931884765625 47.6279296875 47.47026824951172 47.39860534667969 0 1 0.00028868516286214196
11086.658 0.43960562348365784 -2.215268751183981 -0.0032134056091308594 -0.9263330858996888 1.0760365724563599 -1.5714452902423304 0.0 0.0 0.0 0.0 0.0 0.0 0.0 0.0 0.0 0.0 0.0 0.0 -4.923449812576055e-17 1.0789133310317993 0.5271905064582825 0.08255726099014282 -0.00014343505608849227 0.0 -5.304141892712707e-16 11.577032882097015 4.277916167573318 0.31526749683079736 -0.0005478710121118794 0.0 0.4396090507507324 -2.2152792416014613 -0.003229427384212613 -0.9263422054103394 1.076026201248169 -1.5714800993548792 0.0 0.0 -0.0 -0.0 0.0 0.0 -0.01663440465927124 1.2795708179473877 0.6586354374885559 0.378193736076355 -0.022533733397722244 0.004634516313672066 -4.923449812576055e-17 1.0789133310317993 0.5271905064582825 0.08255726099014282 -0.00014343505608849227 0.0 0.39660162719987746 -0.007587107062112986 0.602393251235645 2.1936638638446855 -0.06288036489400492 2.1852594090016604 0.0 0.0 0.0 0.0 0.0 0.0 -5.316673949065268 1.7047395848571547 -17.900161273382032 0.20090714949154972 1.3254767119918907 0.2418634984772628 0.39659297289509876 -0.007591575344966737 0.6024010859978037 2.1936561783894652 -0.06292932716213658 2.1853235763539423 0.0 0.0 0.0 0.0 0.0 0.0 65536 30.75 33.0 34.125 39.0625 42.0625 42.1875 0.653988 7 253 253 253 253 253 253 1 9.404424667358398 0.13407528400421143 -0.09576806426048279 0.0 1.0 0.0 47.70927429199219 47.74509811401367 0.5158582925796509 47.64226150512695 47.47026824951172 47.498931884765625 47.584930419921875 47.44160079956055 47.39860534667969 0 1 0.00018835067749023438
11086.666 0.43960562348365784 -2.215268751183981 -0.0032134056091308594 -0.9263330858996888 1.0760365724563599 -1.5714452902423304 0.0 0.0 0.0 0.0 0.0 0.0 0.0 0.0 0.0 0.0 0.0 0.0 -6.704656868511402e-17 1.0789146423339844 0.5271967649459839 0.08257582783699036 -0.00014655794075224549 0.0 -7.223076336299578e-16 11.577046808869103 4.27796714456065 0.3153384144708449 -0.0005597992939595837 0.0 0.43960559368133545 -2.2152544460692347 -0.003209781600162387 -0.9263883990100403 1.0760096311569214 -1.5714486281024378 0.0 0.0 -0.0 -0.0 0.0 0.0 0.010209962725639343 1.2782399654388428 0.6616188287734985 0.3753325343132019 -0.02819598838686943 0.014691229909658432 -6.704656868511402e-17 1.0789146423339844 0.5271967649459839 0.08257582783699036 -0.00014655794075224549 0.0 0.3965904225005379 -0.0075952272442857405 0.6024024392585837 2.1936691708683447 -0.06293629572720731 2.18526319550656 0.0 0.0 0.0 0.0 0.0 0.0 -5.132111307619198 1.7296681582554023 -17.731515702957275 0.20310423289057228 1.3310412452271803 0.23672584896273657 0.39659297289509876 -0.007591575344966737 0.6024010859978037 2.1936561783894652 -0.06292932716213658 2.1853235763539423 0.0 0.0 0.0 0.0 0.0 0.0 65536 30.75 33.0 34.125 39.0625 42.0625 42.1875 0.658656 7 253 253 253 253 253 253 1 9.500192642211914 0.07661445438861847 -0.05746084079146385 0.0 1.0 0.0 47.71464920043945 47.76122283935547 0.5225711464881897 47.670928955078125 47.498931884765625 47.498931884765625 47.59926223754883 47.48460006713867 47.41293716430664 0 1 0.00030835469563802087
11086.673999999999 0.43960562348365784 -2.215268751183981 -0.0032134056091308594 -0.9263330858996888 1.0760365724563599 -1.5714452902423304 0.0 0.0 0.0 0.0 0.0 0.0 0.0 0.0 0.0 0.0 0.0 0.0 -3.371056795940637e-17 1.0788860321044922 0.5271589159965515 0.0825430378317833 -0.00014135621313471347 0.0 -3.631714339924973e-16 11.576739765172933 4.27766010086448 0.3152132135929258 -0.0005399305357967701 0.0 0.4396280348300934 -2.215288301507467 -0.0032097625080496073 -0.9263717097095032 1.0760338306427002 -1.5714295546161097 0.0 0.0 -0.0 -0.0 0.0 0.0 -0.013960406184196472 1.2752166986465454 0.6535098552703857 0.37292447686195374 -0.030991801992058754 0.013831719756126404 -3.371056795940637e-17 1.0788860321044922 0.5271589159965515 0.0825430378317833 -0.00014135621313471347 0.0 0.39660323048376056 -0.00757820408923429 0.6023917502397351 2.193714722543644 -0.0628983081120177 2.185276516356821 0.0 0.0 0.0 0.0 0.0 0.0 -5.04280308456946 1.6706723869337061 -17.743492342912468 0.20116602804591377 1.3312215555935398 0.23397002573750988 0.39659297289509876 -0.007591575344966737 0.6024010859978037 2.1936561783894652 -0.06292932716213658 2.1853235763539423 0.0 0.0 0.0 0.0 0.0 0.0 65536 30.75 33.0 34.125 39.0625 42.0625 42.1875 0.657685 7 253 253 253 253 253 253 1 9.442731857299805 -0.019153613597154617 -0.038307227194309235 0.0 1.0 0.0 47.718231201171875 47.76838302612305 0.5606174468994141 47.656593322753906 47.44160079956055 47.498931884765625 47.61359786987305 47.47026824951172 47.41293716430664 0 1 0.00018805265426635742
11086.681999999999 0.43960562348365784 -2.215268751183981 -0.0032134056091308594 -0.9263330858996888 1.0760365724563599 -1.5714452902423304 0.0 0.0 0.0 0.0 0.0 0.0 0.0 0.0 0.0 0.0 0.0 0.0 -5.297479709748853e-17 1.0789158344268799 0.5271857380867004 0.08256494998931885 -0.00014464478590525687 0.0 -5.707092513914003e-16 11.577059060916252 4.2778775087714545 0.3152968928157062 -0.0005524917687616124 0.0 0.4396001398563385 -2.2152849636473597 -0.0032221144065260887 -0.9263585370830079 1.0760456323623657 -1.5714333693133753 0.0 0.0 -0.0 -0.0 0.0 0.0 -0.009324327111244202 1.2938505411148071 0.6665358543395996 0.3704870343208313 -0.022533752024173737 -0.011541642248630524 -5.297479709748853e-17 1.0789158344268799 0.5271857380867004 0.08256494998931885 -0.00014464478590525687 0.0 0.3966035650895773 -0.0075879597559768 0.6023914160807683 2.1937016064730477 -0.06291359142992069 2.1852712281462137 0.0 0.0 0.0 0.0 0.0 0.0 -5.0540583971463064 1.5050274352438107 -17.81700199253804 0.20152957454100312 1.3264068276703986 0.2318851466376806 0.39659297289509876 -0.007591575344966737 0.6024010859978037 2.1936561783894652 -0.06292932716213658 2.1853235763539423 0.0 0.0 0.0 0.0 0.0 0.0 65536 30.75 33.0 34.125 39.0625 42.0625 42.1875 0.66084 7 253 253 253 253 253 253 1 9.461885452270508 -0.05746084079146385 -0.13407529890537262 0.0 1.0 0.0 47.70838165283203 47.7585334777832 0.6031407117843628 47.6279296875 47.48460006713867 47.44160079956055 47.57059860229492 47.455936431884766 47.39860534667969 0 1 0.00019470850626627606
11086.689999999999 0.43960562348365784 -2.215268751183981 -0.0032134056091308594 -0.9263330858996888 1.0760365724563599 -1.5714452902423304 0.0 0.0 0.0 0.0 0.0 0.0 0.0 0.0 0.0 0.0 0.0 0.0 -3.517663640731575e-17 1.0789072513580322 0.5271784067153931 0.08255898207426071 -0.00014361414650920779 0.0 -3.7896574013618333e-16 11.576967187803934 4.277818054429025 0.31527410446052323 -0.0005485550445307622 0.0 0.43959665298461914 -2.215288301507467 -0.003225810592994094 -0.9263227742961426 1.0760219097137451 -1.5714643637286585 0.0 0.0 -0.0 -0.0 0.0 0.0 -0.014581486582756042 1.2852039337158203 0.6691784262657166 0.3881923258304596 -0.030155057087540627 -0.006262343376874924 -3.517663640731575e-17 1.0789072513580322 0.5271784067153931 0.08255898207426071 -0.00014361414650920779 0.0 0.39660286664144495 -0.007591765246803273 0.6023923690200028 2.193651713654008 -0.06292279814444479 2.185275686185286 0.0 0.0 0.0 0.0 0.0 0.0 -5.177517998101439 1.5400979851710068 -17.756849902216874 0.20095165408558374 1.3289490297909385 0.22412625115817567 0.39659297289509876 -0.007591575344966737 0.6024010859978037 2.1936561783894652 -0.06292932716213658 2.1853235763539423 0.0 0.0 0.0 0.0 0.0 0.0 65536 30.75 33.0 34.125 39.0625 42.0625 42.1875 0.668881 7 253 253 253 253 253 253 1 9.481039047241211 -0.1149216815829277 -0.05746084079146385 0.0 1.0 0.0 47.7244987487793 47.75315856933594 0.5024327039718628 47.64226150512695 47.498931884765625 47.498931884765625 47.61359786987305 47.47026824951172 47.39860534667969 0 1 0.0004032254219055176
11086.698 0.43960562348365784 -2.215268751183981 -0.0032134056091308594 -0.9263330858996888 1.0760365724563599 -1.5714452902423304 0.0 0.0 0.0 0.0 0.0 0.0 0.0 0.0 0.0 0.0 0.0 0.0 -2.2400120471107444e-17 1.0789129734039307 0.5271946787834167 0.08254978805780411 -0.00014246530190575868 0.0 -2.413214928216177e-16 11.577029307403448 4.277949643094996 0.3152389752399257 -0.000544166905614763 0.0 0.43961262702941895 -2.215269228021139 -0.0032134056091308594 -0.9263346952250977 1.0760881900787354 -1.5714643637286585 0.0 0.0 -0.0 -0.0 0.0 0.0 0.017824172973632812 1.3016711473464966 0.6585019826889038 0.3653466999530792 -0.014804999344050884 -0.007313273847103119 -2.2400120471107444e-17 1.0789129734039307 0.5271946787834167 0.08254978805780411 -0.00014246530190575868 0.0 0.39659362641829676 -0.007583895918113575 0.6024007747190054 2.193679472933884 -0.0628437621072884 2.185341394138458 0.0 0.0 0.0 0.0 0.0 0.0 -5.111194013668555 1.5981641410332488 -17.607067822694006 0.19896791649832268 1.3308588675355713 0.22292525346090067 0.39659297289509876 -0.007591575344966737 0.6024010859978037 2.1936561783894652 -0.06292932716213658 2.1853235763539423 0.0 0.0 0.0 0.0 0.0 0.0 65536 30.75 33.0 34.125 39.0625 42.0625 42.1875 0.649116 7 253 253 253 253 253 253 1 9.442731857299805 -0.1149216815829277 -0.038307227194309235 0.0 1.0 0.0 47.737037658691406 47.754947662353516 0.5315250754356384 47.670928955078125 47.5275993347168 47.513267517089844 47.6279296875 47.498931884765625 47.427268981933594 0 1 0.00021097398227235925
11086.706 0.43960562348365784 -2.215268751183981 -0.0032134056091308594 -0.9263330858996888 1.0760365724563599 -1.5714452902423304 0.0 0.0 0.0 0.0 0.0 0.0 0.0 0.0 0.0 0.0 0.0 0.0 -1.4433515536596163e-16 1.0789116621017456 0.5271801948547363 0.08254320174455643 -0.0001415630104020238 0.0 -1.5549547441208876e-15 11.577014060174916 4.277832508030118 0.3152138299924392 -0.0005407204669150389 0.0 0.43959304690361023 -2.21529545406484 -0.0032330513931810856 -0.9263599079898377 1.0760706663131714 -1.5714486281024378 0.0 0.0 -0.0 -0.0 0.0 0.0 0.004219904541969299 1.2718474864959717 0.6683864593505859 0.37679433822631836 -0.017570234835147858 0.00919184461236 -1.4433515536596163e-16 1.0789116621017456 0.5271801948547363 0.08254320174455643 -0.0001415630104020238 0.0 0.39661055904020703 -0.0075852284768035735 0.6023852714308969 2.1937212908275954 -0.06286587576735572 2.1852452845289814 0.0 0.0 0.0 0.0 0.0 0.0 -5.168630714489735 1.5192720049945696 -17.583901192695908 0.19895117584843952 1.3247244061064187 0.23180824100663022 0.39659297289509876 -0.007591575344966737 0.6024010859978037 2.1936561783894652 -0.06292932716213658 2.1853235763539423 0.0 0.0 0.0 0.0 0.0 0.0 65536 30.75 33.0 34.125 39.0625 42.0625 42.1875 0.665784 7 253 253 253 253 253 253 1 9.442731857299805 -0.038307227194309235 0.05746084079146385 0.0 1.0 0.0 47.711063385009766 47.749576568603516 0.47333502769470215 47.6279296875 47.498931884765625 47.455936431884766 47.584930419921875 47.455936431884766 47.41293716430664 0 1 0.00012576580047607422
11086.714 0.43960562348365784 -2.215268751183981 -0.0032134056091308594 -0.9263330858996888 1.0760365724563599 -1.5714452902423304 0.0 0.0 0.0 0.0 0.0 0.0 0.0 0.0 0.0 0.0 0.0 0.0 -1.9767927537206528e-17 1.0788960456848145 0.5271636247634888 0.08254833519458771 -0.00014202228339854628 0.0 -2.1296428227669934e-16 11.57684729264578 4.277698159270872 0.3152334344483811 -0.0005424747434991733 0.0 0.4396090507507324 -2.215275903741354 -0.0032024758402258158 -0.9263751667789002 1.0760350227355957 -1.5714681784259241 0.0 0.0 -0.0 -0.0 0.0 0.0 -0.01955413818359375 1.283856987953186 0.6534119844436646 0.3809390664100647 -0.012953376397490501 -0.002996820956468582 -1.9767927537206528e-17 1.0788960456848145 0.5271636247634888 0.08254833519458771 -0.00014202228339854628 0.0 0.39659662152101743 -0.007588662885735394 0.6023974089824764 2.193675896143357 -0.06288283332225116 2.1852668743708064 0.0 0.0 0.0 0.0 0.0 0.0 -5.455706721952319 1.7843187129326674 -17.593913493797906 0.20087337628569002 1.3262723569307382 0.23435058047476692 0.39659297289509876 -0.007591575344966737 0.6024010859978037 2.1936561783894652 -0.06292932716213658 2.1853235763539423 0.0 0.0 0.0 0.0 0.0 0.0 65536 30.75 33.0 34.125 39.0625 42.0625 42.1875 0.667836 7 253 253 253 253 253 253 1 9.385271072387695 0.05746084079146385 0.15322890877723694 0.0 1.0 0.0 47.73255920410156 47.764801025390625 0.45319661498069763 47.64226150512695 47.48460006713867 47.498931884765625 47.64226150512695 47.47026824951172 47.39860534667969 0 1 0.00014824334357399493
11086.722 0.43960562348365784 -2.215268751183981 -0.0032134056091308594 -0.9263330858996888 1.0760365724563599 -1.5714452902423304 0.0 0.0 0.0 0.0 0.0 0.0 0.0 0.0 0.0 0.0 0.0 0.0 -6.443427275366746e-17 1.0789400339126587 0.5272030234336853 0.08256259560585022 -0.00014424858090933412 0.0 -6.941647480632938e-16 11.577319486405312 4.278017522398634 0.3152878811479565 -0.0005509783380084646 0.0 0.43958956003189087 -2.2152725658812464 -0.003206085180863738 -0.9263096016696473 1.076038122177124 -1.5714295546161097 0.0 0.0 -0.0 -0.0 0.0 0.0 -0.013015657663345337 1.287889003753662 0.6673240661621094 0.388405978679657 -0.016809768974781036 -0.025997817516326904 -6.443427275366746e-17 1.0789400339126587 0.5272030234336853 0.08256259560585022 -0.00014424858090933412 0.0 0.39659090936153374 -0.0075986990387436944 0.6024031759709015 2.193635317672646 -0.06297591664137336 2.1853565362839755 0.0 0.0 0.0 0.0 0.0 0.0 -5.1771773760578395 1.8903220687492377 -17.723963836510762 0.20016045634032453 1.3257279317185078 0.23723072079826749 0.39659297289509876 -0.007591575344966737 0.6024010859978037 2.1936561783894652 -0.06292932716213658 2.1853235763539423 0.0 0.0 0.0 0.0 0.0 0.0 65536 30.75 33.0 34.125 39.0625 42.0625 42.1875 0.700296 7 253 253 253 253 253 253 1 9.308655738830566 0.09576806426048279 0.1149216815829277 0.0 1.0 0.0 47.71375274658203 47.75763702392578 0.47557616233825684 47.6279296875 47.498931884765625 47.498931884765625 47.61359786987305 47.47026824951172 47.41293716430664 0 1 0.00019550323486328125
11086.73 0.43960562348365784 -2.215268751183981 -0.0032134056091308594 -0.9263330858996888 1.0760365724563599 -1.5714452902423304 0.0 0.0 0.0 0.0 0.0 0.0 0.0 0.0 0.0 0.0 0.0 0.0 -2.155141496465456e-17 1.0788583755493164 0.5271548628807068 0.0825289785861969 -0.00013915881572756916 0.0 -2.3217817871527857e-16 11.576442494593664 4.277626816143256 0.31515948648364606 -0.0005315372844324812 0.0 0.4395861029624939 -2.215304037133688 -0.003209776943549514 -0.9263629478267212 1.076050043106079 -1.5714681784259241 0.0 0.0 -0.0 -0.0 0.0 0.0 -0.02204158902168274 1.2791938781738281 0.665921688079834 0.36215293407440186 -0.0256245955824852 0.017818380147218704 -2.155141496465456e-17 1.0788583755493164 0.5271548628807068 0.0825289785861969 -0.00013915881572756916 0.0 0.3966087412788646 -0.00759063531141628 0.6023868578232522 2.1936893828109922 -0.06287974027372564 2.185234993018304 0.0 0.0 0.0 0.0 0.0 0.0 -5.170126133726547 1.8240758775149004 -17.658497715964003 0.20119435156338933 1.3237648765625407 0.24310265436250775 0.39659297289509876 -0.007591575344966737 0.6024010859978037 2.1936561783894652 -0.06292932716213658 2.1853235763539423 0.0 0.0 0.0 0.0 0.0 0.0 65536 30.75 33.0 34.125 39.0625 42.0625 42.1875 0.662137 7 253 253 253 253 253 253 1 9.327810287475586 0.1149216815829277 0.038307227194309235 0.0 1.0 0.0 47.71733474731445 47.76122283935547 0.5292839407920837 47.64226150512695 47.498931884765625 47.513267517089844 47.59926223754883 47.47026824951172 47.39860534667969 0 1 0.00030517578125
11086.738 0.43960562348365784 -2.215268751183981 -0.0032134056091308594 -0.9263330858996888 1.0760365724563599 -1.5714452902423304 0.0 0.0 0.0 0.0 0.0 0.0 0.0 0.0 0.0 0.0 0.0 0.0 -3.5684346632411e-17 1.0789203643798828 0.5271809101104736 0.08254227042198181 -0.00014165141328703612 0.0 -3.8443540245351877e-16 11.577107952239281 4.277838406700434 0.31521023878372756 -0.000541058146931992 0.0 0.43958956003189087 -2.215288301507467 -0.0032294346019625664 -0.9263673585704346 1.0760457515716553 -1.5714367071734827 0.0 0.0 -0.0 -0.0 0.0 0.0 -0.010587215423583984 1.2654532194137573 0.6477736234664917 0.3776377737522125 -0.019401397556066513 -0.010491937398910522 -3.5684346632411e-17 1.0789203643798828 0.5271809101104736 0.08254227042198181 -0.00014165141328703612 0.0 0.3966072194186577 -0.007590400946647993 0.602387974168832 2.1937094937295276 -0.06291150588161101 2.1852407900173914 0.0 0.0 0.0 0.0 0.0 0.0 -5.314906254484421 1.8351466675541461 -17.790608084633718 0.20128280915803165 1.326612418386674 0.23793924125846477 0.39659297289509876 -0.007591575344966737 0.6024010859978037 2.1936561783894652 -0.06292932716213658 2.1853235763539423 0.0 0.0 0.0 0.0 0.0 0.0 65536 30.75 33.0 34.125 39.0625 42.0625 42.1875 0.676356 7 253 253 253 253 253 253 1 9.442731857299805 0.07661445438861847 -0.019153613597154617 0.0 1.0 0.0 47.71554183959961 47.75226593017578 0.45095017552375793 47.6279296875 47.498931884765625 47.498931884765625 47.61359786987305 47.47026824951172 47.41293716430664 0 1 0.0001621246337890625
11086.746 0.43960562348365784 -2.215268751183981 -0.0032134056091308594 -0.9263330858996888 1.0760365724563599 -1.5714452902423304 0.0 0.0 0.0 0.0 0.0 0.0 0.0 0.0 0.0 0.0 0.0 0.0 -5.026060574946523e-17 1.0789371728897095 0.5271849036216736 0.08255045115947723 -0.0001423575886292383 0.0 -5.414686719228697e-16 11.57728842917209 4.277870685587024 0.31524151892898533 -0.0005437555074715071 0.0 0.4396280348300934 -2.2152849636473597 -0.0032487045973539352 -0.9263466161540528 1.0760337114334106 -1.5714142958270472 0.0 0.0 -0.0 -0.0 0.0 0.0 -0.003160640597343445 1.2975749969482422 0.6488280296325684 0.38001933693885803 -0.03443010151386261 0.009998567402362823 -5.026060574946523e-17 1.0789371728897095 0.5271849036216736 0.08255045115947723 -0.0001423575886292383 0.0 0.39660894379471523 -0.007575553984409457 0.6023868095358932 2.1937294742114886 -0.06291009922814268 2.185271732594834 0.0 0.0 0.0 0.0 0.0 0.0 -5.316556889861717 1.6528116392025702 -17.754966589451694 0.2003894599782892 1.3292068235480223 0.23400598478075124 0.39659297289509876 -0.007591575344966737 0.6024010859978037 2.1936561783894652 -0.06292932716213658 2.1853235763539423 0.0 0.0 0.0 0.0 0.0 0.0 65536 30.75 33.0 34.125 39.0625 42.0625 42.1875 0.644689 7 253 253 253 253 253 253 1 9.461885452270508 -0.1149216815829277 -0.05746084079146385 0.0 1.0 0.0 47.72002029418945 47.745994567871094 0.5024327039718628 47.64226150512695 47.47026824951172 47.498931884765625 47.61359786987305 47.47026824951172 47.39860534667969 0 1 0.0003147125244140625
11086.753999999999 0.43960562348365784 -2.215268751183981 -0.0032134056091308594 -0.9263330858996888 1.0760365724563599 -1.5714452902423304 0.0 0.0 0.0 0.0 0.0 0.0 0.0 0.0 0.0 0.0 0.0 0.0 -9.141986233301771e-17 1.0788943767547607 0.5271654725074768 0.08254662156105042 -0.00014181339065544307 0.0 -9.848865208946787e-16 11.576829404257047 4.277712689733347 0.31522687868495974 -0.0005416768058425731 0.0 0.43958958983421326 -2.21529545406484 -0.0032294464763253927 -0.9263751667789002 1.0760619640350342 -1.5714557806598108 0.0 0.0 -0.0 -0.0 0.0 0.0 0.0013589411973953247 1.294879674911499 0.6540869474411011 0.37290382385253906 -0.01890156790614128 0.00018345192074775696 -9.141986233301771e-17 1.0788943767547607 0.5271654725074768 0.08254662156105042 -0.00014181339065544307 0.0 0.3966108278430388 -0.007587244721984531 0.6023847874521688 2.1937206403505614 -0.06286529900992112 2.185221384179471 0.0 0.0 0.0 0.0 0.0 0.0 -5.285165017436103 1.4505570574466782 -17.769667888925195 0.20160784794897169 1.327124922280127 0.23076459420025147 0.39659297289509876 -0.007591575344966737 0.6024010859978037 2.1936561783894652 -0.06292932716213658 2.1853235763539423 0.0 0.0 0.0 0.0 0.0 0.0 65536 30.75 33.0 34.125 39.0625 42.0625 42.1875 0.64002 7 253 253 253 253 253 253 1 9.500192642211914 -0.038307227194309235 -0.05746084079146385 0.0 1.0 0.0 47.744205474853516 47.762115478515625 0.5807611346244812 47.64226150512695 47.513267517089844 47.498931884765625 47.61359786987305 47.455936431884766 47.38426971435547 0 1 0.00010055962169038443
11086.761999999999 0.43960562348365784 -2.215268751183981 -0.0032134056091308594 -0.9263330858996888 1.0760365724563599 -1.5714452902423304 0.0 0.0 0.0 0.0 0.0 0.0 0.0 0.0 0.0 0.0 0.0 0.0 -9.660356500387112e-17 1.078924298286438 0.5272049307823181 0.08256654441356659 -0.00014519649266730994 0.0 -1.0407316541564706e-15 11.577150125605623 4.278033411081926 0.3153029674354354 -0.0005545990480372666 0.0 0.43961265683174133 -2.2152725658812464 -0.003209781600162387 -0.9263737958720704 1.075989007949829 -1.5714557806598108 0.0 0.0 -0.0 -0.0 0.0 0.0 -0.018137231469154358 1.2794620990753174 0.6644805669784546 0.3891207277774811 -0.016804717481136322 0.004393171519041061 -9.660356500387112e-17 1.078924298286438 0.5272049307823181 0.08256654441356659 -0.00014519649266730994 0.0 0.3965966215792479 -0.007591371448949566 0.6023971848893858 2.1936614977760605 -0.06294111640889286 2.18524835293854 0.0 0.0 0.0 0.0 0.0 0.0 -5.115130759003979 1.3973287722654653 -17.749642541629502 0.19970385968170073 1.327449464681398 0.22664555624303898 0.39659297289509876 -0.007591575344966737 0.6024010859978037 2.1936561783894652 -0.06292932716213658 2.1853235763539423 0.0 0.0 0.0 0.0 0.0 0.0 65536 30.75 33.0 34.125 39.0625 42.0625 42.1875 0.663276 7 253 253 253 253 253 253 1 9.461885452270508 -0.13407529890537262 -0.09576806426048279 0.0 1.0 0.0 47.71464920043945 47.74061965942383 0.5069043636322021 47.61359786987305 47.498931884765625 47.47026824951172 47.61359786987305 47.44160079956055 47.39860534667969 0 1 0.00021097398227235925
11086.769999999999 0.43960562348365784 -2.215268751183981 -0.0032134056091308594 -0.9263330858996888 1.0760365724563599 -1.5714452902423304 0.0 0.0 0.0 0.0 0.0 0.0 0.0 0.0 0.0 0.0 0.0 0.0 -6.325366764387257e-17 1.0789425373077393 0.5272101759910583 0.08256105333566666 -0.00014447810826823115 0.0 -6.814458440159789e-16 11.577345406750245 4.2780758612113985 0.31528198347037345 -0.0005518550790785228 0.0 0.43959665298461914 -2.2152725658812464 -0.0031630746088922024 -0.926325873737671 1.0760587453842163 -1.5714295546161097 0.0 0.0 -0.0 -0.0 0.0 0.0 0.007593140006065369 1.2842750549316406 0.6711925268173218 0.3825058937072754 -0.00521957827731967 0.010756375268101692 -6.325366764387257e-17 1.0789425373077393 0.5272101759910583 0.08256105333566666 -0.00014447810826823115 0.0 0.39658237973290833 -0.007598041601488312 0.6024108714307497 2.193629400851634 -0.06295932942912816 2.185402810231606 0.0 0.0 0.0 0.0 0.0 0.0 -5.160213038737717 1.415038291183376 -17.66141446006565 0.19864829358694394 1.3317314282687234 0.23011536190090673 0.39659297289509876 -0.007591575344966737 0.6024010859978037 2.1936561783894652 -0.06292932716213658 2.1853235763539423 0.0 0.0 0.0 0.0 0.0 0.0 65536 30.75 33.0 34.125 39.0625 42.0625 42.1875 0.658404 7 253 253 253 253 253 253 1 9.442731857299805 -0.1149216815829277 0.0 0.0 1.0 0.0 47.712860107421875 47.74778747558594 0.4308117628097534 47.64226150512695 47.5275993347168 47.455936431884766 47.61359786987305 47.47026824951172 47.41293716430664 0 1 0.0001887215815562134
11086.778 0.43960562348365784 -2.215268751183981 -0.0032134056091308594 -0.9263330858996888 1.0760365724563599 -1.5714452902423304 0.0 0.0 0.0 0.0 0.0 0.0 0.0 0.0 0.0 0.0 0.0 0.0 -2.0313497818938328e-17 1.078924298286438 0.5271861553192139 0.08255850523710251 -0.00014362313959281892 0.0 -2.1884182528613315e-16 11.577150448801541 4.2778809032626945 0.3152722602191922 -0.0005485893690781164 0.0 0.4396090507507324 -2.215288301507467 -0.0032258033752441406 -0.9263214033893128 1.076066255569458 -1.5714333693133753 0.0 0.0 -0.0 -0.0 0.0 0.0 -0.005731165409088135 1.2919659614562988 0.6507352590560913 0.3701585531234741 -0.035628899931907654 -0.0012648813426494598 -2.0313497818938328e-17 1.078924298286438 0.5271861553192139 0.08255850523710251 -0.00014362313959281892 0.0 0.3966030956636468 -0.007582814593331868 0.602392472985709 2.1936939744290638 -0.06289657884984043 2.18532248933714 0.0 0.0 0.0 0.0 0.0 0.0 -5.1104663703786875 1.5693302291613216 -17.755504476704814 0.2007374542456105 1.3245042484274046 0.23437483585067717 0.39659297289509876 -0.007591575344966737 0.6024010859978037 2.1936561783894652 -0.06292932716213658 2.1853235763539423 0.0 0.0 0.0 0.0 0.0 0.0 65536 30.75 33.0 34.125 39.0625 42.0625 42.1875 0.65262 7 253 253 253 253 253 253 1 9.423578262329102 0.05746084079146385 -0.13407528400421143 0.0 1.0 0.0 47.7164421081543 47.75405502319336 0.4218578040599823 47.64226150512695 47.513267517089844 47.498931884765625 47.61359786987305 47.44160079956055 47.41293716430664 0 1 0.0001621246337890625
11086.786 0.43960562348365784 -2.215268751183981 -0.0032134056091308594 -0.9263330858996888 1.0760365724563599 -1.5714452902423304 0.0 0.0 0.0 0.0 0.0 0.0 0.0 0.0 0.0 0.0 0.0 0.0 -1.1865326198899905e-16 1.0789052248001099 0.5271609425544739 0.08254244923591614 -0.00014117553655523807 0.0 -1.2782779637319774e-15 11.57694559012355 4.2776760445847035 0.31521093806083167 -0.0005392404144622148 0.0 0.43958956003189087 -2.215288301507467 -0.0032170077320188284 -0.9263346952250977 1.0760631561279297 -1.5714367071734827 0.0 0.0 -0.0 -0.0 0.0 0.0 0.013278782367706299 1.2892016172409058 0.6719621419906616 0.37647444009780884 -0.026502639055252075 0.004257015883922577 -1.1865326198899905e-16 1.0789052248001099 0.5271609425544739 0.08254244923591614 -0.00014117553655523807 0.0 0.3966019209116752 -0.0075913034847287265 0.6023932371625379 2.1936842760987334 -0.06291511648105846 2.1853037465748724 0.0 0.0 0.0 0.0 0.0 0.0 -5.126396746729439 1.7986689094819426 -17.729412685219323 0.20171909132983268 1.3241338926282125 0.23477340612136025 0.39659297289509876 -0.007591575344966737 0.6024010859978037 2.1936561783894652 -0.06292932716213658 2.1853235763539423 0.0 0.0 0.0 0.0 0.0 0.0 65536 30.75 33.0 34.125 39.0625 42.0625 42.1875 0.654313 7 253 253 253 253 253 253 1 9.423578262329102 0.038307227194309235 0.0 0.0 1.0 0.0 47.71196365356445 47.75226593017578 0.5001915693283081 47.6279296875 47.455936431884766 47.47026824951172 47.61359786987305 47.44160079956055 47.39860534667969 0 1 0.00023089511766253662
11086.794 0.43960562348365784 -2.215268751183981 -0.0032134056091308594 -0.9263330858996888 1.0760365724563599 -1.5714452902423304 0.0 0.0 0.0 0.0 0.0 0.0 0.0 0.0 0.0 0.0 0.0 0.0 -3.347877871687921e-17 1.078947901725769 0.5271991491317749 0.08256017416715622 -0.00014387314149644226 0.0 -3.6067432254775844e-16 11.57740446830003 4.277986724714963 0.31527866282490496 -0.0005495443268693917 0.0 0.43958958983421326 -2.215269228021139 -0.003229427384212613 -0.9263377350619812 1.076054334640503 -1.5714400450335901 0.0 0.0 -0.0 -0.0 0.0 0.0 -0.011132284998893738 1.2751929759979248 0.6485229134559631 0.379486083984375 -0.025864800438284874 -0.007552836090326309 -3.347877871687921e-17 1.078947901725769 0.5271991491317749 0.08256017416715622 -0.00014387314149644226 0.0 0.39659720777522417 -0.0075943145683908565 0.6023971724599066 2.1936755304644904 -0.06292279339670397 2.1853018213702406 0.0 0.0 0.0 0.0 0.0 0.0 -5.2283896738363955 1.872630951531126 -17.522269445934466 0.199167544691466 1.3253377445043708 0.23341322381540244 0.39659297289509876 -0.007591575344966737 0.6024010859978037 2.1936561783894652 -0.06292932716213658 2.1853235763539423 0.0 0.0 0.0 0.0 0.0 0.0 65536 30.75 33.0 34.125 39.0625 42.0625 42.1875 0.642576 7 253 253 253 253 253 253 1 9.346963882446289 0.07661445438861847 0.09576806426048279 0.0 1.0 0.0 47.751365661621094 47.76032257080078 0.4979557394981384 47.656593322753906 47.498931884765625 47.498931884765625 47.61359786987305 47.455936431884766 47.41293716430664 0 1 0.0003147125244140625
11086.802 0.43960562348365784 -2.215268751183981 -0.0032134056091308594 -0.9263330858996888 1.0760365724563599 -1.5714452902423304 0.0 0.0 0.0 0.0 0.0 0.0 0.0 0.0 0.0 0.0 0.0 0.0 -3.7687503452051065e-17 1.078917145729065 0.5271914601325989 0.08255480974912643 -0.00014340056804940104 0.0 -4.0601587337796017e-16 11.577073414314011 4.277924280939102 0.3152581511974514 -0.000547739295575542 0.0 0.43960559368133545 -2.215269228021139 -0.0032258033752441406 -0.9263795775226136 1.0760469436645508 -1.5714367071734827 0.0 0.0 -0.0 -0.0 0.0 0.0 -0.02240470051765442 1.2795813083648682 0.667894721031189 0.3736945390701294 -0.018723098561167717 -0.013863272964954376 -3.7687503452051065e-17 1.078917145729065 0.5271914601325989 0.08255480974912643 -0.00014340056804940104 0.0 0.39659967690982934 -0.007587544953025112 0.6023945281204388 2.1937104711583504 -0.06289818915880861 2.185262204367542 0.0 0.0 0.0 0.0 0.0 0.0 -5.22415244656327 1.7596967929425202 -17.6309089215847 0.20148395881771908 1.3274102416155729 0.23501879235248727 0.39659297289509876 -0.007591575344966737 0.6024010859978037 2.1936561783894652 -0.06292932716213658 2.1853235763539423 0.0 0.0 0.0 0.0 0.0 0.0 65536 30.75 33.0 34.125 39.0625 42.0625 42.1875 0.653508 7 253 253 253 253 253 253 1 9.404424667358398 0.0 0.05746084079146385 0.0 1.0 0.0 47.7218132019043 47.76301193237305 0.5225711464881897 47.656593322753906 47.498931884765625 47.513267517089844 47.59926223754883 47.47026824951172 47.427268981933594 0 1 0.00010924872185569257
11086.81 0.43960562348365784 -2.215268751183981 -0.0032134056091308594 -0.9263330858996888 1.0760365724563599 -1.5714452902423304 0.0 0.0 0.0 0.0 0.0 0.0 0.0 0.0 0.0 0.0 0.0 0.0 -4.414496252302079e-18 1.078884482383728 0.5271483659744263 0.08253265172243118 -0.00013992290769238025 0.0 -4.7558349376910157e-17 11.576723069998316 4.277573936623406 0.31517354036938605 -0.0005344558002603857 0.0 0.4396021068096161 -2.215288301507467 -0.003217029618099332 -0.9263391059688111 1.0760263204574585 -1.5714181105243128 0.0 0.0 -0.0 -0.0 0.0 0.0 -0.004080131649971008 1.285581111907959 0.6518107652664185 0.37414315342903137 -0.042393218725919724 -0.0028085261583328247 -4.414496252302079e-18 1.078884482383728 0.5271483659744263 0.08253265172243118 -0.00013992290769238025 0.0 0.39660216000758175 -0.007589559435457109 0.6023928811175417 2.193683413658005 -0.06295977185189353 2.1852955462433115 0.0 0.0 0.0 0.0 0.0 0.0 -5.317761746676215 1.7051610690237378 -17.66786776504858 0.20112749099105542 1.324973571461017 0.2361995433162723 0.39659297289509876 -0.007591575344966737 0.6024010859978037 2.1936561783894652 -0.06292932716213658 2.1853235763539423 0.0 0.0 0.0 0.0 0.0 0.0 65536 30.75 33.0 34.125 39.0625 42.0625 42.1875 0.653064 7 253 253 253 253 253 253 1 9.461885452270508 0.1149216815829277 0.1149216815829277 0.0 1.0 0.0 47.72987747192383 47.75226593017578 0.4420015513896942 47.656593322753906 47.455936431884766 47.498931884765625 47.6279296875 47.47026824951172 47.39860534667969 0 1 0.00023089511766253662
11086.818 0.43960562348365784 -2.215268751183981 -0.0032134056091308594 -0.9263330858996888 1.0760365724563599 -1.5714452902423304 0.0 0.0 0.0 0.0 0.0 0.0 0.0 0.0 0.0 0.0 0.0 0.0 -3.7446496108777615e-17 1.0789082050323486 0.5271837711334229 0.08255992084741592 -0.00014380045467987657 0.0 -4.034194307765435e-16 11.576978133012194 4.277861418488496 0.31527768068295914 -0.0005492667031541206 0.0 0.4396161735057831 -2.2152420483031214 -0.003225818043574691 -0.9263183635524292 1.0759965181350708 -1.5714295546161097 0.0 0.0 -0.0 -0.0 0.0 0.0 0.026608958840370178 1.2701592445373535 0.6506729125976562 0.36912766098976135 -0.024885397404432297 0.0057684388011693954 -3.7446496108777615e-17 1.0789082050323486 0.5271837711334229 0.08255992084741592 -0.00014380045467987657 0.0 0.39658368828141566 -0.007595388308764229 0.6024091895782009 2.1936260171285773 -0.06299319004327929 2.185351258785526 0.0 0.0 0.0 0.0 0.0 0.0 -5.216456460762502 1.7053182412148473 -17.595608795943377 0.20031070380495797 1.3277817514660955 0.22890228390831396 0.39659297289509876 -0.007591575344966737 0.6024010859978037 2.1936561783894652 -0.06292932716213658 2.1853235763539423 0.0 0.0 0.0 0.0 0.0 0.0 65536 30.75 33.0 34.125 39.0625 42.0625 42.1875 0.64404 7 253 253 253 253 253 253 1 9.423578262329102 -0.05746084079146385 -0.038307227194309235 0.0 1.0 0.0 47.718231201171875 47.75047302246094 0.5516634583473206 47.64226150512695 47.47026824951172 47.47026824951172 47.61359786987305 47.455936431884766 47.39860534667969 0 1 0.00013987223307291668
11086.826 0.43960562348365784 -2.215268751183981 -0.0032134056091308594 -0.9263330858996888 1.0760365724563599 -1.5714452902423304 0.0 0.0 0.0 0.0 0.0 0.0 0.0 0.0 0.0 0.0 0.0 0.0 -2.800647273030605e-17 1.0789296627044678 0.5272039771080017 0.08256029337644577 -0.0001442706270609051 0.0 -3.017199575704935e-16 11.577207147988252 4.278025595843458 0.3152791055196545 -0.0005510625677602458 0.0 0.4396090507507324 -2.21529545406484 -0.00324504473246634 -0.9263007205775757 1.0759965181350708 -1.5714519659625452 0.0 0.0 -0.0 -0.0 0.0 0.0 -0.003336980938911438 1.2665666341781616 0.6610124111175537 0.37416940927505493 -0.03892436623573303 0.0028820671141147614 -2.800647273030605e-17 1.0789296627044678 0.5272039771080017 0.08256029337644577 -0.0001442706270609051 0.0 0.39660848590092923 -0.007586529064957953 0.6023875885079575 2.1936537648479235 -0.06294832733530695 2.185270229950401 0.0 0.0 0.0 0.0 0.0 0.0 -5.093362912150672 1.531128281990108 -17.815100127309346 0.20045889793019508 1.3250558940009634 0.23340138879979858 0.39659297289509876 -0.007591575344966737 0.6024010859978037 2.1936561783894652 -0.06292932716213658 2.1853235763539423 0.0 0.0 0.0 0.0 0.0 0.0 65536 30.75 33.0 34.125 39.0625 42.0625 42.1875 0.659173 7 253 253 253 253 253 253 1 9.327810287475586 -0.019153613597154617 0.05746084079146385 0.0 1.0 0.0 47.7218132019043 47.76122283935547 0.4890017807483673 47.6279296875 47.498931884765625 47.513267517089844 47.61359786987305 47.455936431884766 47.41293716430664 0 1 0.0001887215815562134
11086.833999999999 0.43960562348365784 -2.215268751183981 -0.0032134056091308594 -0.9263330858996888 1.0760365724563599 -1.5714452902423304 0.0 0.0 0.0 0.0 0.0 0.0 0.0 0.0 0.0 0.0 0.0 0.0 -6.185876319842235e-17 1.0789275169372559 0.5271904468536377 0.0825674831867218 -0.0001456243044231087 0.0 -6.664182098094473e-16 11.577185108946345 4.277915563407498 0.31530655330416296 -0.0005562331763300426 0.0 0.4396090507507324 -2.215288301507467 -0.0032294464763253927 -0.9263585370830079 1.0760096311569214 -1.5714214483844202 0.0 0.0 -0.0 -0.0 0.0 0.0 -0.009117349982261658 1.292160987854004 0.6712347269058228 0.37382692098617554 -0.013789980672299862 -0.006746463477611542 -6.185876319842235e-17 1.0789275169372559 0.5271904468536377 0.0825674831867218 -0.0001456243044231087 0.0 0.3966064924075361 -0.007586310379331865 0.6023886973435962 2.1937010062329674 -0.06295073338111366 2.1852506780372645 0.0 0.0 0.0 0.0 0.0 0.0 -5.194335705347771 1.6051264123077724 -17.812710420390314 0.20039590011378053 1.3269700203666768 0.23126160583019723 0.39659297289509876 -0.007591575344966737 0.6024010859978037 2.1936561783894652 -0.06292932716213658 2.1853235763539423 0.0 0.0 0.0 0.0 0.0 0.0 65536 30.75 33.0 34.125 39.0625 42.0625 42.1875 0.66588 7 253 253 253 253 253 253 1 9.461885452270508 -0.1149216815829277 -0.09576806426048279 0.0 1.0 0.0 47.71196365356445 47.75315856933594 0.5427148342132568 47.6279296875 47.47026824951172 47.455936431884766 47.59926223754883 47.41293716430664 47.369937896728516 0 1 0.0002491474151611328
11086.841999999999 0.43960562348365784 -2.215268751183981 -0.0032134056091308594 -0.9263330858996888 1.0760365724563599 -1.5714452902423304 0.0 0.0 0.0 0.0 0.0 0.0 0.0 0.0 0.0 0.0 0.0 0.0 3.402371537826179e-17 1.0789202451705933 0.5271955728530884 0.08256345987319946 -0.0001446536771254614 0.0 3.6654505661998e-16 11.57710645596371 4.277957322588801 0.3152911928471487 -0.0005525256576211506 0.0 0.4396161437034607 -2.215296884576315 -0.0032294464763253927 -0.9263302844813843 1.0760009288787842 -1.5714176336871546 0.0 0.0 -0.0 -0.0 0.0 0.0 0.007722154259681702 1.2623934745788574 0.66839998960495 0.3822133541107178 -0.038786571472883224 -0.016750290989875793 3.402371537826179e-17 1.0789202451705933 0.5271955728530884 0.08256345987319946 -0.0001446536771254614 0.0 0.39660781782703464 -0.00758366115110561 0.6023879449251623 2.193686894286023 -0.06296639751618385 2.1852753944115584 0.0 0.0 0.0 0.0 0.0 0.0 -5.142317343965433 1.6024332207224363 -17.810600386471492 0.20186945192530256 1.3292873105392082 0.2358836975785357 0.39659297289509876 -0.007591575344966737 0.6024010859978037 2.1936561783894652 -0.06292932716213658 2.1853235763539423 0.0 0.0 0.0 0.0 0.0 0.0 65536 30.75 33.0 34.125 39.0625 42.0625 42.1875 0.666529 7 253 253 253 253 253 253 1 9.481039047241211 -0.019153613597154617 0.05746084079146385 0.0 1.0 0.0 47.71554183959961 47.75584411621094 0.5494276285171509 47.656593322753906 47.47026824951172 47.513267517089844 47.59926223754883 47.455936431884766 47.41293716430664 0 1 0.00014026959737141928
11086.85 0.43960562348365784 -2.215268751183981 -0.0032134056091308594 -0.9263330858996888 1.0760365724563599 -1.5714452902423304 0.0 0.0 0.0 0.0 0.0 0.0 0.0 0.0 0.0 0.0 0.0 0.0 -6.155572392665232e-17 1.0789457559585571 0.5272104740142822 0.08256851136684418 -0.0001453038421459496 0.0 -6.631535504432853e-16 11.577379960707315 4.278077996700639 0.3153104710061969 -0.0005550091351202981 0.0 0.43961265683174133 -2.2152849636473597 -0.0031983302906155586 -0.9263496559909363 1.0760294198989868 -1.5714557806598108 0.0 0.0 -0.0 -0.0 0.0 0.0 0.004711732268333435 1.2919057607650757 0.6639731526374817 0.372004896402359 -0.02153392694890499 0.0033112280070781708 -6.155572392665232e-17 1.0789457559585571 0.5272104740142822 0.08256851136684418 -0.0001453038421459496 0.0 0.39659738414011547 -0.007587368671256749 0.6023971329410697 2.193664768995855 -0.06290892544007397 2.185296919107753 0.0 0.0 0.0 0.0 0.0 0.0 -4.983974577894259 1.631670077420544 -17.811269600290228 0.20165227974050537 1.3310238517790463 0.23388412045144102 0.39659297289509876 -0.007591575344966737 0.6024010859978037 2.1936561783894652 -0.06292932716213658 2.1853235763539423 0.0 0.0 0.0 0.0 0.0 0.0 65536 30.75 33.0 34.125 39.0625 42.0625 42.1875 0.644448 7 253 253 253 253 253 253 1 9.461885452270508 0.05746084079146385 -0.019153613597154617 0.0 1.0 0.0 47.730770111083984 47.75942611694336 0.5225711464881897 47.64226150512695 47.44160079956055 47.48460006713867 47.61359786987305 47.47026824951172 47.39860534667969 0 1 0.00019550323486328125
11086.858 0.43960562348365784 -2.215268751183981 -0.0032134056091308594 -0.9263330858996888 1.0760365724563599 -1.5714452902423304 0.0 0.0 0.0 0.0 0.0 0.0 0.0 0.0 0.0 0.0 0.0 0.0 -1.775668254553692e-16 1.0789178609848022 0.5271775722503662 0.08255083858966827 -0.00014277159061748534 0.0 -1.9129668727211084e-15 11.577080761587581 4.277811216048734 0.3152429875092674 -0.000545336794340288 0.0 0.43959304690361023 -2.215269228021139 -0.0032170487102121115 -0.9263795775226136 1.0760096311569214 -1.5714486281024378 0.0 0.0 -0.0 -0.0 0.0 0.0 0.004310682415962219 1.2925585508346558 0.6569957733154297 0.3833853304386139 -0.02023802325129509 -0.004802122712135315 -1.775668254553692e-16 1.0789178609848022 0.5271775722503662 0.08255083858966827 -0.00014277159061748534 0.0 0.3965973522754495 -0.007596900221581522 0.602396372835947 2.1936726961739414 -0.06294320598906679 2.185240902789778 0.0 0.0 0.0 0.0 0.0 0.0 -5.208168103600488 1.668237758088799 -17.75358522190144 0.19980166503483493 1.325495836566597 0.23495547148019616 0.39659297289509876 -0.007591575344966737 0.6024010859978037 2.1936561783894652 -0.06292932716213658 2.1853235763539423 0.0 0.0 0.0 0.0 0.0 0.0 65536 30.75 33.0 34.125 39.0625 42.0625 42.1875 0.649296 7 253 253 253 253 253 253 1 9.461885452270508 0.0 -0.019153613597154617 0.0 1.0 0.0 47.72987747192383 47.74778747558594 0.5494276285171509 47.6279296875 47.498931884765625 47.48460006713867 47.61359786987305 47.455936431884766 47.41293716430664 0 1 0.00020831823348999023
11086.866 0.43960562348365784 -2.215268751183981 -0.0032134056091308594 -0.9263330858996888 1.0760365724563599 -1.5714452902423304 0.0 0.0 0.0 0.0 0.0 0.0 0.0 0.0 0.0 0.0 0.0 0.0 -7.025432877848036e-17 1.0788941383361816 0.5271650552749634 0.08254576474428177 -0.00014188115892466158 0.0 -7.56865470283093e-16 11.57682612732372 4.277709412800021 0.31522360175163316 -0.0005419356708224025 0.0 0.4396090507507324 -2.215300222436422 -0.00324504473246634 -0.9263540667346497 1.0760140419006348 -1.5714295546161097 0.0 0.0 -0.0 -0.0 0.0 0.0 -0.0037956833839416504 1.264855146408081 0.6566792726516724 0.382892906665802 -0.007714131847023964 0.009432028979063034 -7.025432877848036e-17 1.0788941383361816 0.5271650552749634 0.08254576474428177 -0.00014188115892466158 0.0 0.39661463830663923 -0.007582096762950224 0.6023815453489125 2.193717063737819 -0.06292541176897896 2.1852211749786363 0.0 0.0 0.0 0.0 0.0 0.0 -5.293398552456657 1.6317687095086397 -17.7272877328379 0.20139931445692497 1.3257560771062928 0.2354650532896913 0.39659297289509876 -0.007591575344966737 0.6024010859978037 2.1936561783894652 -0.06292932716213658 2.1853235763539423 0.0 0.0 0.0 0.0 0.0 0.0 65536 30.75 33.0 34.125 39.0625 42.0625 42.1875 0.657468 7 253 253 253 253 253 253 1 9.442731857299805 0.17238251864910126 0.1149216815829277 0.0 1.0 0.0 47.725399017333984 47.75047302246094 0.4643864035606384 47.64226150512695 47.498931884765625 47.48460006713867 47.57059860229492 47.44160079956055 47.39860534667969 0 1 0.00012576580047607422
11086.874 0.43960562348365784 -2.215268751183981 -0.0032134056091308594 -0.9263330858996888 1.0760365724563599 -1.5714452902423304 0.0 0.0 0.0 0.0 0.0 0.0 0.0 0.0 0.0 0.0 0.0 0.0 2.5688249432789434e-17 1.0788651704788208 0.5271593332290649 0.08255023509263992 -0.00014265476784203202 0.0 2.767452126273964e-16 11.576515795167243 4.277663065744813 0.31524069161388746 -0.0005448905959172371 0.0 0.43959665298461914 -2.215269228021139 -0.003213398391380906 -0.9263050717166443 1.0760053396224976 -1.5714643637286585 0.0 0.0 -0.0 -0.0 0.0 0.0 0.00781327486038208 1.290556788444519 0.6509246826171875 0.37708157300949097 -0.0412406250834465 -0.012623041868209839 2.5688249432789434e-17 1.0788651704788208 0.5271593332290649 0.08255023509263992 -0.00014265476784203202 0.0 0.39659076639028584 -0.007598918304002665 0.6024032046371534 2.193605874553327 -0.06296526523524729 2.1853260661223612 0.0 0.0 0.0 0.0 0.0 0.0 -5.102503133134172 1.6518361560103951 -17.820192356140232 0.2011637444316601 1.3255408107618332 0.23366227236937218 0.39659297289509876 -0.007591575344966737 0.6024010859978037 2.1936561783894652 -0.06292932716213658 2.1853235763539423 0.0 0.0 0.0 0.0 0.0 0.0 65536 30.75 33.0 34.125 39.0625 42.0625 42.1875 0.652104 7 253 253 253 253 253 253 1 9.481039047241211 0.019153613597154617 0.019153613597154617 0.0 1.0 0.0 47.730770111083984 47.756744384765625 0.5292839407920837 47.6279296875 47.498931884765625 47.47026824951172 47.61359786987305 47.455936431884766 47.38426971435547 0 1 0.00027954578399658203
11086.882 0.43960562348365784 -2.215268751183981 -0.0032134056091308594 -0.9263330858996888 1.0760365724563599 -1.5714452902423304 0.0 0.0 0.0 0.0 0.0 0.0 0.0 0.0 0.0 0.0 0.0 0.0 -3.4119539289142385e-17 1.078902244567871 0.5271854400634766 0.08255264163017273 -0.0001430561678716913 0.0 -3.6757739374087783e-16 11.576913002368453 4.277875019679113 0.31524984798726324 -0.0005464237520602306 0.0 0.4396126866340637 -2.215288301507467 -0.003201939631253481 -0.9263795775226136 1.0760338306427002 -1.5714519659625452 0.0 0.0 -0.0 -0.0 0.0 0.0 -0.00487731397151947 1.2648990154266357 0.6652581691741943 0.3785221576690674 -0.010999460704624653 -0.0004883110523223877 -3.4119539289142385e-17 1.078902244567871 0.5271854400634766 0.08255264163017273 -0.0001430561678716913 0.0 0.39660191097605363 -0.007584853469116761 0.6023927511926246 2.1936967712936553 -0.06289003413940353 2.18525700710376 0.0 0.0 0.0 0.0 0.0 0.0 -5.095053702385109 1.6522489478291358 -17.682164160161925 0.19920337932902915 1.3269520057125301 0.23197024658003984 0.39659297289509876 -0.007591575344966737 0.6024010859978037 2.1936561783894652 -0.06292932716213658 2.1853235763539423 0.0 0.0 0.0 0.0 0.0 0.0 65536 30.75 33.0 34.125 39.0625 42.0625 42.1875 0.641557 7 253 253 253 253 253 253 1 9.385271072387695 -0.05746084079146385 0.019153613597154617 0.0 1.0 0.0 47.70838165283203 47.74778747558594 0.5158582925796509 47.6279296875 47.498931884765625 47.48460006713867 47.584930419921875 47.44160079956055 47.44160079956055 0 1 0.0001315011225718384
11086.89 0.43960562348365784 -2.215268751183981 -0.0032134056091308594 -0.9263330858996888 1.0760365724563599 -1.5714452902423304 0.0 0.0 0.0 0.0 0.0 0.0 0.0 0.0 0.0 0.0 0.0 0.0 9.075922295627366e-17 1.0789180994033813 0.5271928310394287 0.08256255090236664 -0.00014489695604424924 0.0 9.777692537634805e-16 11.577083989117988 4.277934855743077 0.31528770688787705 -0.0005534548853926965 0.0 0.43963637948036194 -2.2152849636473597 -0.003209781600162387 -0.9263050717166443 1.076013207435608 -1.5714557806598108 0.0 0.0 -0.0 -0.0 0.0 0.0 -0.011073634028434753 1.284266471862793 0.6618440747261047 0.39026254415512085 -0.01822837069630623 -0.025053106248378754 9.075922295627366e-17 1.0789180994033813 0.5271928310394287 0.08256255090236664 -0.00014489695604424924 0.0 0.3965966867724737 -0.007579810650394633 0.6023983628253475 2.1936433858572975 -0.06291716817429485 2.1853404989687855 0.0 0.0 0.0 0.0 0.0 0.0 -5.141977698475777 1.6285702662035786 -17.711911378185242 0.2002118378766578 1.3249341268591015 0.23158798837752598 0.39659297289509876 -0.007591575344966737 0.6024010859978037 2.1936561783894652 -0.06292932716213658 2.1853235763539423 0.0 0.0 0.0 0.0 0.0 0.0 65536 30.75 33.0 34.125 39.0625 42.0625 42.1875 0.658368 7 253 253 253 253 253 253 1 9.404424667358398 0.09576806426048279 0.09576806426048279 0.0 1.0 0.0 47.704795837402344 47.74509811401367 0.5718072056770325 47.59926223754883 47.47026824951172 47.48460006713867 47.61359786987305 47.44160079956055 47.39860534667969 0 1 0.00017325083414713543
11086.898 0.43960562348365784 -2.215268751183981 -0.0032134056091308594 -0.9263330858996888 1.0760365724563599 -1.5714452902423304 0.0 0.0 0.0 0.0 0.0 0.0 0.0 0.0 0.0 0.0 0.0 0.0 -7.478211692824862e-17 1.078918695449829 0.5271896123886108 0.08255627751350403 -0.00014375410682987422 0.0 -8.056443627041334e-16 11.577090519113202 4.277908966968404 0.3152637594955927 -0.0005490896839727751 0.0 0.4396398365497589 -2.215238233605856 -0.003236625110730529 -0.9263302844813843 1.0760829448699951 -1.5714176336871546 0.0 0.0 -0.0 -0.0 0.0 0.0 -0.003400444984436035 1.2875856161117554 0.6644265651702881 0.3681904077529907 -0.016585616394877434 -0.0044240802526474 -7.478211692824862e-17 1.078918695449829 0.5271896123886108 0.08255627751350403 -0.00014375410682987422 0.0 0.39658620487831353 -0.007577186908068383 0.6024072913231165 2.1937026554180794 -0.06287805581203662 2.1853913640419376 0.0 0.0 0.0 0.0 0.0 0.0 -5.246286692521394 1.6890050304947637 -17.7146621482467 0.2013979862107228 1.3268186932757566 0.23076145262517156 0.39659297289509876 -0.007591575344966737 0.6024010859978037 2.1936561783894652 -0.06292932716213658 2.1853235763539423 0.0 0.0 0.0 0.0 0.0 0.0 65536 30.75 33.0 34.125 39.0625 42.0625 42.1875 0.644065 7 253 253 253 253 253 253 1 9.404424667358398 0.07661445438861847 -0.019153613597154617 0.0 1.0 0.0 47.72002029418945 47.76569747924805 0.5762841701507568 47.64226150512695 47.5275993347168 47.498931884765625 47.57059860229492 47.44160079956055 47.41293716430664 0 1 0.0001045068105061849
11086.905999999999 0.43960562348365784 -2.215268751183981 -0.0032134056091308594 -0.9263330858996888 1.0760365724563599 -1.5714452902423304 0.0 0.0 0.0 0.0 0.0 0.0 0.0 0.0 0.0 0.0 0.0 0.0 -2.2884851618785968e-17 1.0788934230804443 0.5271642208099365 0.08254397660493851 -0.00014189181092660874 0.0 -2.4654359693881855e-16 11.57681930881121 4.27770259428751 0.3152167832391229 -0.0005419763829201928 0.0 0.4396090507507324 -2.2152725658812464 -0.003222102066501975 -0.9263510268977662 1.076054334640503 -1.5714452902423304 0.0 0.0 -0.0 -0.0 0.0 0.0 -0.0033681541681289673 1.295629620552063 0.6709194183349609 0.3781089186668396 -0.018927130848169327 -0.01941578835248947 -2.2884851618785968e-17 1.0788934230804443 0.5271642208099365 0.08254397660493851 -0.00014189181092660874 0.0 0.3965980459528686 -0.0075862712973076805 0.6023964397620662 2.1936902335342303 -0.06289126825730695 2.1852980010028555 0.0 0.0 0.0 0.0 0.0 0.0 -5.155201784046154 1.733921123439451 -17.82075370007732 0.20208056343784567 1.325098756592842 0.23003039924425064 0.39659297289509876 -0.007591575344966737 0.6024010859978037 2.1936561783894652 -0.06292932716213658 2.1853235763539423 0.0 0.0 0.0 0.0 0.0 0.0 65536 30.75 33.0 34.125 39.0625 42.0625 42.1875 0.653268 7 253 253 253 253 253 253 1 9.461885452270508 0.07661445438861847 0.07661445438861847 0.0 1.0 0.0 47.725399017333984 47.77107238769531 0.49571460485458374 47.64226150512695 47.5275993347168 47.427268981933594 47.64226150512695 47.48460006713867 47.427268981933594 0 1 0.0001442432403564453
11086.913999999999 0.43960562348365784 -2.215268751183981 -0.0032134056091308594 -0.9263330858996888 1.0760365724563599 -1.5714452902423304 0.0 0.0 0.0 0.0 0.0 0.0 0.0 0.0 0.0 0.0 0.0 0.0 -7.951981043025834e-17 1.0789110660552979 0.5271686911582947 0.08253687620162964 -0.00014038788503967226 0.0 -8.566846304350926e-16 11.577008490500475 4.277738944961629 0.31518965977321245 -0.0005362319027094211 0.0 0.4396161735057831 -2.2152778110899867 -0.003206068417057395 -0.926383988266327 1.0760587453842163 -1.5714333693133753 0.0 0.0 -0.0 -0.0 0.0 0.0 -0.014887019991874695 1.271793007850647 0.6632156372070312 0.3869178891181946 -0.017412057146430016 -0.0002470947802066803 -7.951981043025834e-17 1.0789110660552979 0.5271686911582947 0.08253687620162964 -0.00014038788503967226 0.0 0.39659909381029446 -0.007582585756211471 0.6023952534262378 2.193718402696268 -0.0628810269610301 2.185283519390565 0.0 0.0 0.0 0.0 0.0 0.0 -5.14848198272991 1.6398177000733984 -17.863311784162466 0.20210915629930798 1.3267725279632459 0.2348541388063076 0.39659297289509876 -0.007591575344966737 0.6024010859978037 2.1936561783894652 -0.06292932716213658 2.1853235763539423 0.0 0.0 0.0 0.0 0.0 0.0 65536 30.75 33.0 34.125 39.0625 42.0625 42.1875 0.672396 7 253 253 253 253 253 253 1 9.461885452270508 0.05746084079146385 0.0 0.0 1.0 0.0 47.702110290527344 47.72897720336914 0.5225711464881897 47.656593322753906 47.455936431884766 47.455936431884766 47.61359786987305 47.455936431884766 47.39860534667969 0 1 0.0001621246337890625
11086.921999999999 0.43960562348365784 -2.215268751183981 -0.0032134056091308594 -0.9263330858996888 1.0760365724563599 -1.5714452902423304 0.0 0.0 0.0 0.0 0.0 0.0 0.0 0.0 0.0 0.0 0.0 0.0 -1.1544946574512806e-17 1.0789064168930054 0.5271812081336975 0.08254242688417435 -0.00014125800225883722 0.0 -1.243762777338406e-16 11.576957285744683 4.277840571220984 0.3152108667792127 -0.0005395554371565457 0.0 0.4396001398563385 -2.2152654133238734 -0.0031946825329214334 -0.9263554376414795 1.0760631561279297 -1.5714486281024378 0.0 0.0 -0.0 -0.0 0.0 0.0 -0.02038373053073883 1.2648472785949707 0.6628248691558838 0.3839240074157715 -0.01344822533428669 -0.018795564770698547 -1.1544946574512806e-17 1.0789064168930054 0.5271812081336975 0.08254242688417435 -0.00014125800225883722 0.0 0.3965891081213102 -0.007593162314388042 0.6024043771662057 2.193665879856878 -0.06290276326059382 2.1853323406030194 0.0 0.0 0.0 0.0 0.0 0.0 -5.147345094384494 1.724123375007057 -17.733325032920156 0.1994999508145383 1.3317206199681095 0.22606129668099587 0.39659297289509876 -0.007591575344966737 0.6024010859978037 2.1936561783894652 -0.06292932716213658 2.1853235763539423 0.0 0.0 0.0 0.0 0.0 0.0 65536 30.75 33.0 34.125 39.0625 42.0625 42.1875 0.671772 7 253 253 253 253 253 253 1 9.500192642211914 0.019153613597154617 0.19153612852096558 0.0 1.0 0.0 47.74061965942383 47.754947662353516 0.47557616233825684 47.6279296875 47.498931884765625 47.48460006713867 47.59926223754883 47.47026824951172 47.427268981933594 0 1 9.338061014811198e-05
11086.93 0.43960562348365784 -2.215268751183981 -0.0032134056091308594 -0.9263330858996888 1.0760365724563599 -1.5714452902423304 0.0 0.0 0.0 0.0 0.0 0.0 0.0 0.0 0.0 0.0 0.0 0.0 3.2656369282099386e-17 1.0789145231246948 0.5271881222724915 0.08255257457494736 -0.00014304670912679285 0.0 3.518143202827606e-16 11.57704590228487 4.277896768909962 0.3152496200547618 -0.000546387638946901 0.0 0.43959665298461914 -2.2152654133238734 -0.003237753640860319 -0.9263139528087159 1.076054334640503 -1.5714486281024378 0.0 0.0 -0.0 -0.0 0.0 0.0 0.007509171962738037 1.2854846715927124 0.6628357172012329 0.370683491230011 -0.03579204902052879 -0.015755347907543182 3.2656369282099386e-17 1.0789145231246948 0.5271881222724915 0.08255257457494736 -0.00014304670912679285 0.0 0.39659579923941224 -0.007592196516956369 0.6023987187635903 2.193660653139822 -0.06291518208264471 2.185324120754458 0.0 0.0 0.0 0.0 0.0 0.0 -5.061527782001771 1.6050798783087354 -17.863845823689562 0.20275715506395167 1.3289890528707151 0.23224021702390024 0.39659297289509876 -0.007591575344966737 0.6024010859978037 2.1936561783894652 -0.06292932716213658 2.1853235763539423 0.0 0.0 0.0 0.0 0.0 0.0 65536 30.75 33.0 34.125 39.0625 42.0625 42.1875 0.66696 7 253 253 253 253 253 253 1 9.423578262329102 -0.05746084079146385 -0.038307227194309235 0.0 1.0 0.0 47.73972702026367 47.76301193237305 0.5852327942848206 47.61359786987305 47.498931884765625 47.498931884765625 47.61359786987305 47.47026824951172 47.39860534667969 0 1 0.0001049041748046875
11086.938 0.43960562348365784 -2.215268751183981 -0.0032134056091308594 -0.9263330858996888 1.0760365724563599 -1.5714452902423304 0.0 0.0 0.0 0.0 0.0 0.0 0.0 0.0 0.0 0.0 0.0 0.0 -6.615443785086333e-17 1.0789377689361572 0.5272040367126465 0.08256449550390244 -0.00014445408305618912 0.0 -7.126964769225067e-16 11.577295759597746 4.2780262140589 0.3152951265447103 -0.0005517633306350255 0.0 0.43959668278694153 -2.215269228021139 -0.003213398391380906 -0.9263751667789002 1.0760380029678345 -1.5714295546161097 0.0 0.0 -0.0 -0.0 0.0 0.0 -0.009544625878334045 1.3006556034088135 0.6595581769943237 0.375768780708313 -0.008030411787331104 -0.004992939531803131 -6.615443785086333e-17 1.0789377689361572 0.5272040367126465 0.08256449550390244 -0.00014445408305618912 0.0 0.3965963503849076 -0.007593396603695443 0.6023974919433331 2.193691738432694 -0.06293381704097577 2.185276842606762 0.0 0.0 0.0 0.0 0.0 0.0 -5.143482106228255 1.6678461510748535 -17.687597798070943 0.20279251485738514 1.3310640375009 0.22855570178509665 0.39659297289509876 -0.007591575344966737 0.6024010859978037 2.1936561783894652 -0.06292932716213658 2.1853235763539423 0.0 0.0 0.0 0.0 0.0 0.0 65536 30.75 33.0 34.125 39.0625 42.0625 42.1875 0.654469 7 253 253 253 253 253 253 1 9.404424667358398 0.05746084079146385 -0.07661445438861847 0.0 1.0 0.0 47.730770111083984 47.77017593383789 0.42633479833602905 47.670928955078125 47.47026824951172 47.498931884765625 47.61359786987305 47.48460006713867 47.39860534667969 0 1 0.00017205874125162762
11086.946 0.43960562348365784 -2.215268751183981 -0.0032134056091308594 -0.9263330858996888 1.0760365724563599 -1.5714452902423304 0.0 0.0 0.0 0.0 0.0 0.0 0.0 0.0 0.0 0.0 0.0 0.0 -8.217200293700956e-17 1.0789695978164673 0.5272089838981628 0.08256441354751587 -0.000144804289448075 0.0 -8.852572661084799e-16 11.577636536771688 4.278065965731486 0.31529482439861356 -0.0005531010216421778 0.0 0.43961265683174133 -2.2152816257872523 -0.0032098107039928436 -0.9263540667346497 1.0760457515716553 -1.5714486281024378 0.0 0.0 -0.0 -0.0 0.0 0.0 -0.0074535757303237915 1.2739098072052002 0.66093909740448 0.36739110946655273 -0.017580412328243256 0.009568586945533752 -8.217200293700956e-17 1.0789695978164673 0.5272089838981628 0.08256441354751587 -0.000144804289448075 0.0 0.39659910927993386 -0.007585110200985852 0.6023955493482915 2.1936859774540904 -0.06289299203673913 2.1852939621021843 0.0 0.0 0.0 0.0 0.0 0.0 -5.138461675293125 1.7608660241523184 -17.791120659072796 0.2024679268472221 1.32700700864983 0.23137640135980417 0.39659297289509876 -0.007591575344966737 0.6024010859978037 2.1936561783894652 -0.06292932716213658 2.1853235763539423 0.0 0.0 0.0 0.0 0.0 0.0 65536 30.75 33.0 34.125 39.0625 42.0625 42.1875 0.653808 7 253 253 253 253 253 253 1 9.327810287475586 0.09576806426048279 -0.07661445438861847 0.0 1.0 0.0 47.72092056274414 47.77017593383789 0.5516634583473206 47.6279296875 47.48460006713867 47.48460006713867 47.61359786987305 47.47026824951172 47.41293716430664 0 1 0.00047206878662109375
11086.954 0.43960562348365784 -2.215268751183981 -0.0032134056091308594 -0.9263330858996888 1.0760365724563599 -1.5714452902423304 0.0 0.0 0.0 0.0 0.0 0.0 0.0 0.0 0.0 0.0 0.0 0.0 -1.2975819479974795e-16 1.0789217948913574 0.5271828174591064 0.08256208896636963 -0.00014434964396059513 0.0 -1.397913810409571e-15 11.577123719525476 4.277854173986629 0.31528594544716304 -0.0005513643915339937 0.0 0.4396090507507324 -2.2152849636473597 -0.0031946676317602396 -0.9263510268977662 1.076038122177124 -1.5714295546161097 0.0 0.0 -0.0 -0.0 0.0 0.0 -0.002785220742225647 1.2684988975524902 0.6663562059402466 0.37842050194740295 -0.022722391411662102 0.0020736772567033768 -1.2975819479974795e-16 1.0789217948913574 0.5271828174591064 0.08256208896636963 -0.00014434964396059513 0.0 0.3965966626750785 -0.00758834332724654 0.6023977880563495 2.1936775156536785 -0.06293370549768255 2.1853157907705376 0.0 0.0 0.0 0.0 0.0 0.0 -5.173602037696034 1.7533264842910727 -17.730565105691138 0.20116165175539602 1.3272052334339517 0.23431181408647142 0.39659297289509876 -0.007591575344966737 0.6024010859978037 2.1936561783894652 -0.06292932716213658 2.1853235763539423 0.0 0.0 0.0 0.0 0.0 0.0 65536 30.75 33.0 34.125 39.0625 42.0625 42.1875 0.658081 7 253 253 253 253 253 253 1 9.481039047241211 0.0 -0.019153613597154617 0.0 1.0 0.0 47.72987747192383 47.77017593383789 0.5427148342132568 47.64226150512695 47.47026824951172 47.47026824951172 47.59926223754883 47.47026824951172 47.39860534667969 0 1 0.0001798073450724284
11086.962 0.43960562348365784 -2.215268751183981 -0.0032134056091308594 -0.9263330858996888 1.0760365724563599 -1.5714452902423304 0.0 0.0 0.0 0.0 0.0 0.0 0.0 0.0 0.0 0.0 0.0 0.0 -6.251986579630943e-17 1.0789306163787842 0.5271801948547363 0.08256197720766068 -0.0001445688831154257 0.0 -6.7354044374663355e-16 11.577217621617782 4.2778322962101045 0.3152855463176775 -0.0005522018205908648 0.0 0.43959304690361023 -2.215269228021139 -0.0032330274116247892 -0.9263346952250977 1.0760706663131714 -1.5714557806598108 0.0 0.0 -0.0 -0.0 0.0 0.0 0.002931550145149231 1.28053879737854 0.6618772149085999 0.3749816417694092 -0.010647537186741829 -0.0030504129827022552 -6.251986579630943e-17 1.0789306163787842 0.5271801948547363 0.08256197720766068 -0.0001445688831154257 0.0 0.39659792173634384 -0.007591160218418314 0.602396661169489 2.193679081779182 -0.06288364472601642 2.185303220823068 0.0 0.0 0.0 0.0 0.0 0.0 -5.094588364177705 1.837776655496827 -17.771313976802414 0.19963018971130497 1.3268652750379275 0.23207087197379056 0.39659297289509876 -0.007591575344966737 0.6024010859978037 2.1936561783894652 -0.06292932716213658 2.1853235763539423 0.0 0.0 0.0 0.0 0.0 0.0 65536 30.75 33.0 34.125 39.0625 42.0625 42.1875 0.655152 7 253 253 253 253 253 253 1 9.346963882446289 0.13407528400421143 0.05746084079146385 0.0 1.0 0.0 47.72808074951172 47.756744384765625 0.4420015513896942 47.670928955078125 47.48460006713867 47.498931884765625 47.61359786987305 47.455936431884766 47.39860534667969 0 1 0.00028133392333984375
11086.97 0.43960562348365784 -2.215268751183981 -0.0032134056091308594 -0.9263330858996888 1.0760365724563599 -1.5714452902423304 0.0 0.0 0.0 0.0 0.0 0.0 0.0 0.0 0.0 0.0 0.0 0.0 -1.7862557693476767e-16 1.0789254903793335 0.527187705039978 0.08254676312208176 -0.00014209475193638355 0.0 -1.9243730345188568e-15 11.577163094663426 4.277893549124579 0.31522741938292836 -0.0005427515253541245 0.0 0.4396090507507324 -2.2152725658812464 -0.003229427384212613 -0.926383988266327 1.0760219097137451 -1.5714486281024378 0.0 0.0 -0.0 -0.0 0.0 0.0 -0.025783956050872803 1.295304298400879 0.6639312505722046 0.3848353922367096 -0.025563735514879227 -0.0014323480427265167 -1.7862557693476767e-16 1.0789254903793335 0.527187705039978 0.08254676312208176 -0.00014209475193638355 0.0 0.39660210507756577 -0.007587290897656652 0.6023922261240185 2.1937025301222053 -0.06290257006352805 2.1852313563703682 0.0 0.0 0.0 0.0 0.0 0.0 -5.174821317455397 1.6683680740560545 -17.71128980696688 0.19960945659935633 1.3242277212121656 0.2382142697314816 0.39659297289509876 -0.007591575344966737 0.6024010859978037 2.1936561783894652 -0.06292932716213658 2.1853235763539423 0.0 0.0 0.0 0.0 0.0 0.0 65536 30.75 33.0 34.125 39.0625 42.0625 42.25 0.676296 7 253 253 253 253 253 253 1 9.366117477416992 0.1149216815829277 0.038307227194309235 0.0 1.0 0.0 47.72987747192383 47.74688720703125 0.47333502769470215 47.6279296875 47.498931884765625 47.41293716430664 47.57059860229492 47.44160079956055 47.38426971435547 0 1 0.00019391377766927084
11086.978 0.43960562348365784 -2.215268751183981 -0.0032134056091308594 -0.9263330858996888 1.0760365724563599 -1.5714452902423304 0.0 0.0 0.0 0.0 0.0 0.0 0.0 0.0 0.0 0.0 0.0 0.0 -3.189329185829677e-17 1.078905701637268 0.5271802544593811 0.08255251497030258 -0.00014283299969974905 0.0 -3.4359354458357993e-16 11.576949693772264 4.277832979248563 0.31524938046286816 -0.000545571398448229 0.0 0.43960556387901306 -2.215288301507467 -0.003213398391380906 -0.9263629478267212 1.076038122177124 -1.5714557806598108 0.0 0.0 -0.0 -0.0 0.0 0.0 -0.006651565432548523 1.2872259616851807 0.6497673392295837 0.38601619005203247 -0.008535508066415787 -0.006125718355178833 -3.189329185829677e-17 1.078905701637268 0.5271802544593811 0.08255251497030258 -0.00014283299969974905 0.0 0.396603249094137 -0.0075866419015046295 0.6023916997224774 2.193689663898452 -0.06289141625652246 2.185259775519067 0.0 0.0 0.0 0.0 0.0 0.0 -5.26804171977043 1.6662210405644888 -17.69600589424371 0.20244392005975648 1.3226059893379847 0.23519408455397667 0.39659297289509876 -0.007591575344966737 0.6024010859978037 2.1936561783894652 -0.06292932716213658 2.1853235763539423 0.0 0.0 0.0 0.0 0.0 0.0 65536 30.75 33.0 34.125 39.0625 42.0625 42.25 0.655992 7 253 253 253 253 253 253 1 9.442731857299805 0.0 -0.019153613597154617 0.0 1.0 0.0 47.7218132019043 47.74778747558594 0.6277561187744141 47.6279296875 47.498931884765625 47.47026824951172 47.61359786987305 47.47026824951172 47.39860534667969 0 1 7.033348083496094e-05
